!!!!SEGMENT: pl-cz--iii-31--002_bolehovsky-josef--litaniae-sancta-maria.krn
!!!cenid: 17xx:829
!!!COM: Bolehovský, Josef
!!!COM-rismID: pe30000404
!!!CDT: 1743-1811
!!!CNT: Czech
!!!OPR: Litaniae
!!!OTL: Sancta Maria
!!!OMV: 002
!!!PDT:
!!!AGN: Sacred; Mass
!!!SMS-siglum: PL-CZ
!!!SMS-shelfmark: III-31
!!!SMS-shelfwork: 001-002 M
!!!SMS-variant:
!!!SMS-altvar:
!!!NIFC-rismSourceID: 300237604
!!!NIFC-islandoraID: pl-cz:37498
!!!URL-pdf-islandora: https://repozytorium.nifc.pl/islandora/object/pl-cz%3A37498/datastream/PDF/view
!!!URL-scan:
!!!ONB-nifc: UWAGA: części Litanii: Kyrie, Sancta Maria, Virgo prudentissima, Rosa mystica, Salus infirmorum, Regina angelorum, Agnus Dei
!!!AIN: 1 alto 3 empty 1 organ 1 tenor 3 violn 1 vox
!!!key:
**kern	**fba	**kern	**dynam	**kern	**dynam	**kern	**kern	**text	**kern	**text	**kern	**text	**dynam	**kern	**text	**kern	**kern
*part10	*	*part9	*part9	*part8	*part8	*part7	*part6	*part6	*part5	*part5	*part4	*part4	*part4	*part3	*part3	*part2	*part1
*staff10	*	*staff9	*	*staff8	*	*staff7	*staff6	*staff6	*staff5	*staff5	*staff4	*staff4	*	*staff3	*staff3	*staff2	*staff1
*Iorgan	*	*Ivioln	*	*Ivioln	*	*Ivioln	*Iempty	*	*Itenor	*	*Ialto	*	*	*Ivox	*	*Iempty	*Iempty
*I"Organo	*	*I"Violino 2do	*	*I"Violino Primo	*	*I"Violino Principali	*I"Baſso.	*	*I"Tenore	*	*I"Alto.	*	*	*I"Canto.	*	*I"Clarino Secundo in D	*I"Clarino Primo in D
*I'org	*	*I'vn 2	*	*I'vn 1	*	*I'vn-o	*I'B	*	*I'T	*	*I'A	*	*	*I'C	*	*I'cl 2	*I'cl 1
*group4	*	*group3	*	*group3	*	*group3	*group2	*	*group2	*	*group2	*	*	*group2	*	*group1	*group1
*clefF4	*	*clefG2	*	*clefG2	*	*clefG2	*clefF4	*	*clefC4	*	*clefC3	*	*	*clefC1	*	*clefG2	*clefG2
*	*	*	*	*	*	*	*	*	*	*	*	*	*	*	*	*ITrd-1c-2	*ITrd-1c-2
*k[f#c#g#]	*	*k[f#c#g#]	*	*k[f#c#g#]	*	*k[f#c#g#]	*k[f#c#g#]	*	*k[f#c#g#]	*	*k[f#c#g#]	*	*	*k[f#c#g#]	*	*k[f#c#g#]	*k[f#c#g#]
*A:	*	*A:	*	*A:	*	*A:	*A:	*	*A:	*	*A:	*	*	*A:	*	*A:	*A:
*M2/4	*	*M2/4	*	*M2/4	*	*M2/4	*M2/4	*	*M2/4	*	*M2/4	*	*	*M2/4	*	*M2/4	*M2/4
!LO:TX:b:t=Sanctu Mar&colon;	!	!	!	!LO:TX:b:t=Sata Marya	!	!LO:TX:a:t=P:problem=głos tylko w części Regina	!	!	!	!	!	!	!	!	!	!	!
!LO:TX:a:t=and&colon; Solo	!	!LO:TX:a:t=Andante	!	!LO:TX:a:t=Andante	!	!	!LO:TX:a:t=andan&colon;	!	!LO:TX:a:t=and	!	!LO:TX:a:t=and&colon;	!	!	!LO:TX:a:t=and	!	!LO:TX:a:t=Sancta Maria Tacet	!LO:TX:a:t=Sancta Maria Tacet
!	!	!LO:TX:a:t=P:problem= 32\right&colon; global	!	!	!	!	!LO:TX:b:t=Sancta Maria	!	!LO:TX:b:t=Sancta Maria	!	!	!	!	!	!	!	!
8r	.	32ee\LLL	.	(32ee\LLL	.	8ryy	8r	.	8r	.	8r	.	.	8r	.	8ryy	8ryy
.	.	32dd\	.	32dd\	.	.	.	.	.	.	.	.	.	.	.	.	.
.	.	32cc#\	.	32cc#\	.	.	.	.	.	.	.	.	.	.	.	.	.
.	.	32b\JJJ	.	32b\JJJ)	.	.	.	.	.	.	.	.	.	.	.	.	.
=1	=1	=1	=1	=1	=1	=1	=1	=1	=1	=1	=1	=1	=1	=1	=1	=1	=1
*2\right	*	*2\right	*	*2\right	*	*	*	*	*2\right	*	*2\right	*	*	*2\right	*	*	*
!LO:TX:a:t=P:problem= mixed beam	!	!LO:TX:a:t=P:problem= 8\right&colon; global	!	!	!	!	!LO:N:vis=00	!	!LO:N:vis=00	!	!LO:N:vis=00	!	!	!LO:N:vis=00	!	!	!
8AA/L	.	8a`\L	.	8a`\L	.	2ryy	0r	.	0r	.	0r	.	.	0r	.	2ryy	2ryy
!	!	!LO:TX:a:t=P:problem= 16\right&colon; global	!	!	!	!	!	!	!	!	!	!	!	!	!	!	!
8A\	.	(16a\L	.	(16a\L	.	.	.	.	.	.	.	.	.	.	.	.	.
.	.	16cc#\JJ)	.	16cc#\JJ)	.	.	.	.	.	.	.	.	.	.	.	.	.
8G#\	6	8b`\L	.	8b`\L	.	.	.	.	.	.	.	.	.	.	.	.	.
8E\J	.	(16b\L	.	(16b\L	.	.	.	.	.	.	.	.	.	.	.	.	.
.	.	16dd\JJ)	.	16dd\JJ)	.	.	.	.	.	.	.	.	.	.	.	.	.
=2	=2	=2	=2	=2	=2	=2	=2	=2	=2	=2	=2	=2	=2	=2	=2	=2	=2
!LO:TX:a:t=P:problem= mixed beam	!	!	!	!	!	!	!	!	!	!	!	!	!	!	!	!	!
8AA/L	.	(16cc#\LL	.	(16cc#\LL	.	2ryy	.	.	.	.	.	.	.	.	.	2ryy	2ryy
.	.	16dd\J)	.	16dd\J)	.	.	.	.	.	.	.	.	.	.	.	.	.
8A\	.	8ee\J	.	8ee\J	.	.	.	.	.	.	.	.	.	.	.	.	.
8AA/J	.	8r	.	8r	.	.	.	.	.	.	.	.	.	.	.	.	.
8r	.	8e/	.	8e/	.	.	.	.	.	.	.	.	.	.	.	.	.
=3	=3	=3	=3	=3	=3	=3	=3	=3	=3	=3	=3	=3	=3	=3	=3	=3	=3
!LO:TX:a:t=P:problem= mixed beam	!	!	!	!	!	!	!	!	!	!	!	!	!	!	!	!	!
8AA/L	.	8a`\L	.	8a`/L	.	2ryy	.	.	.	.	.	.	.	.	.	2ryy	2ryy
8A\	.	(16a\L	.	(16a/L	.	.	.	.	.	.	.	.	.	.	.	.	.
.	.	16cc#\JJ)	.	16cc#/JJ)	.	.	.	.	.	.	.	.	.	.	.	.	.
8G#\	6	8b`\L	.	8b`/L	.	.	.	.	.	.	.	.	.	.	.	.	.
8E\J	.	(16b\L	.	(16b/L	.	.	.	.	.	.	.	.	.	.	.	.	.
.	.	16dd\JJ)	.	16dd/JJ)	.	.	.	.	.	.	.	.	.	.	.	.	.
=4	=4	=4	=4	=4	=4	=4	=4	=4	=4	=4	=4	=4	=4	=4	=4	=4	=4
!LO:TX:a:t=P:problem= mixed beam	!	!	!	!	!	!	!	!	!	!	!	!	!	!	!	!	!
8AA/L	.	(16cc#\LL	.	(16cc#\LL	.	2ryy	.	.	.	.	.	.	.	.	.	2ryy	2ryy
.	.	16dd\J)	.	16dd\J)	.	.	.	.	.	.	.	.	.	.	.	.	.
8A\	.	8ee`\J	.	8ee\J	.	.	.	.	.	.	.	.	.	.	.	.	.
8AA/J	.	4r	.	16r	.	.	.	.	.	.	.	.	.	.	.	.	.
.	.	.	.	16ee\	.	.	.	.	.	.	.	.	.	.	.	.	.
8r	.	.	.	(32dd\LLL	.	.	.	.	.	.	.	.	.	.	.	.	.
.	.	.	.	32cc#\	.	.	.	.	.	.	.	.	.	.	.	.	.
.	.	.	.	32b\)	.	.	.	.	.	.	.	.	.	.	.	.	.
.	.	.	.	32a\JJJ	.	.	.	.	.	.	.	.	.	.	.	.	.
=5	=5	=5	=5	=5	=5	=5	=5	=5	=5	=5	=5	=5	=5	=5	=5	=5	=5
!LO:TX:a:t=P:problem= caudy półnut z prawej strony	!	!	!	!	!	!	!LO:N:vis=00	!	!LO:N:vis=00	!	!LO:N:vis=00	!	!	!LO:N:vis=00	!	!	!
*tremolo	*	*tremolo	*	*	*	*	*	*	*	*	*	*	*	*	*	*	*
*tremolo	*	*	*	*	*	*	*	*	*	*	*	*	*	*	*	*	*
*	*	*tremolo	*	*	*	*	*	*	*	*	*	*	*	*	*	*	*
8A\L	6 4	16dd\LL	.	16ff#\LL	.	2ryy	0r	.	0r	.	0r	.	.	0r	.	2ryy	2ryy
.	.	16dd\	.	16dd\JJ	.	.	.	.	.	.	.	.	.	.	.	.	.
8A\	.	16dd\	.	16r	.	.	.	.	.	.	.	.	.	.	.	.	.
.	.	16dd\	.	16aa\	.	.	.	.	.	.	.	.	.	.	.	.	.
8A\	.	16dd\	.	16aa\LL	.	.	.	.	.	.	.	.	.	.	.	.	.
.	.	16dd\	.	16ff#\	.	.	.	.	.	.	.	.	.	.	.	.	.
8A\J	.	16dd\	.	16ff#\	.	.	.	.	.	.	.	.	.	.	.	.	.
.	.	16dd\JJ	.	16dd\JJ	.	.	.	.	.	.	.	.	.	.	.	.	.
=6	=6	=6	=6	=6	=6	=6	=6	=6	=6	=6	=6	=6	=6	=6	=6	=6	=6
8A\L	5 3	16cc#\LL	.	16ee\LL	.	2ryy	.	.	.	.	.	.	.	.	.	2ryy	2ryy
.	.	16cc#\	.	16cc#\JJ	.	.	.	.	.	.	.	.	.	.	.	.	.
8A\	.	16cc#\	.	16r	.	.	.	.	.	.	.	.	.	.	.	.	.
.	.	16cc#\	.	16aa\	.	.	.	.	.	.	.	.	.	.	.	.	.
!	!	!	!	!LO:LB:g=original	!	!	!	!	!	!	!	!	!	!	!	!	!
8A\	.	16cc#\	.	16aa\LL	.	.	.	.	.	.	.	.	.	.	.	.	.
.	.	16cc#\	.	16ee\	.	.	.	.	.	.	.	.	.	.	.	.	.
8A\J	.	16cc#\	.	16ee\	.	.	.	.	.	.	.	.	.	.	.	.	.
.	.	16cc#\JJ	.	16cc#\JJ	.	.	.	.	.	.	.	.	.	.	.	.	.
*Xtremolo	*	*Xtremolo	*	*	*	*	*	*	*	*	*	*	*	*	*	*	*
=7	=7	=7	=7	=7	=7	=7	=7	=7	=7	=7	=7	=7	=7	=7	=7	=7	=7
8G#\	6 5	(32b\LLL	.	(32dd\LLL	.	2ryy	.	.	.	.	.	.	.	.	.	2ryy	2ryy
.	.	32a\	.	32cc#\	.	.	.	.	.	.	.	.	.	.	.	.	.
.	.	32b\	.	32dd\	.	.	.	.	.	.	.	.	.	.	.	.	.
.	.	32cc#\JJJ)	.	32ee\JJJ)	.	.	.	.	.	.	.	.	.	.	.	.	.
8r	.	16b`\LL	.	16dd\LL	.	.	.	.	.	.	.	.	.	.	.	.	.
.	.	16dd`\JJ	.	16bb\JJ	.	.	.	.	.	.	.	.	.	.	.	.	.
8A\	.	(32a\LLL	.	(32cc#\LLL	.	.	.	.	.	.	.	.	.	.	.	.	.
.	.	32g#\	.	32b\	.	.	.	.	.	.	.	.	.	.	.	.	.
.	.	32a\	.	32cc#\	.	.	.	.	.	.	.	.	.	.	.	.	.
.	.	32b\JJJ)	.	32dd\JJJ)	.	.	.	.	.	.	.	.	.	.	.	.	.
8r	.	16a`\LL	.	16cc#\LL	.	.	.	.	.	.	.	.	.	.	.	.	.
.	.	16cc#`\JJ	.	16aa\JJ	.	.	.	.	.	.	.	.	.	.	.	.	.
!	!	!LO:LB:g=original	!	!	!	!	!	!	!	!	!	!	!	!	!	!	!
=8	=8	=8	=8	=8	=8	=8	=8	=8	=8	=8	=8	=8	=8	=8	=8	=8	=8
8E/L	.	8a/L	.	8cc#\L	.	2ryy	.	.	.	.	.	.	.	.	.	2ryy	2ryy
8BB/	4	8g#/J	.	8b\J	.	.	.	.	.	.	.	.	.	.	.	.	.
8EE/J	3	4r	.	4r	.	.	.	.	.	.	.	.	.	.	.	.	.
8r	.	.	.	.	.	.	.	.	.	.	.	.	.	.	.	.	.
=9	=9	=9	=9	=9	=9	=9	=9	=9	=9	=9	=9	=9	=9	=9	=9	=9	=9
!	!	!	!	!	!	!	!	!	!LO:TX:b:t=19	!	!	!	!	!	!	!	!
!	!	!	!	!	!	!	!LO:N:vis=00	!	!	!	!LO:N:vis=00	!	!	!LO:N:vis=00	!	!	!
8r	.	(16dd\LL	.	4.gg#\	.	2ryy	0r	.	0r	.	0r	.	.	0r	.	2ryy	2ryy
.	.	16ee\	.	.	.	.	.	.	.	.	.	.	.	.	.	.	.
8E\L	.	16dd\)	.	.	.	.	.	.	.	.	.	.	.	.	.	.	.
.	.	16ee\JJ	.	.	.	.	.	.	.	.	.	.	.	.	.	.	.
8G#\	6	(16dd\LL	.	.	.	.	.	.	.	.	.	.	.	.	.	.	.
.	.	16ee\	.	.	.	.	.	.	.	.	.	.	.	.	.	.	.
8E\J	.	16dd\	.	8gg#\	.	.	.	.	.	.	.	.	.	.	.	.	.
.	.	16ee\JJ)	.	.	.	.	.	.	.	.	.	.	.	.	.	.	.
=10	=10	=10	=10	=10	=10	=10	=10	=10	=10	=10	=10	=10	=10	=10	=10	=10	=10
4A\	.	8cc#\	.	(16aa\LL	.	2ryy	.	.	.	.	.	.	.	.	.	2ryy	2ryy
.	.	.	.	16ccc#\	.	.	.	.	.	.	.	.	.	.	.	.	.
.	.	8r	.	16aa\)	.	.	.	.	.	.	.	.	.	.	.	.	.
.	.	.	.	16ccc#\JJ	.	.	.	.	.	.	.	.	.	.	.	.	.
4r	.	4r	.	(16aa\LL	.	.	.	.	.	.	.	.	.	.	.	.	.
.	.	.	.	16ccc#\	.	.	.	.	.	.	.	.	.	.	.	.	.
.	.	.	.	16aa\)	.	.	.	.	.	.	.	.	.	.	.	.	.
.	.	.	.	16ccc#\JJ	.	.	.	.	.	.	.	.	.	.	.	.	.
=11	=11	=11	=11	=11	=11	=11	=11	=11	=11	=11	=11	=11	=11	=11	=11	=11	=11
8r	.	(16dd\LL	.	4.gg#\	.	2ryy	.	.	.	.	.	.	.	.	.	2ryy	2ryy
.	.	16ee\	.	.	.	.	.	.	.	.	.	.	.	.	.	.	.
8E\L	.	16dd\)	.	.	.	.	.	.	.	.	.	.	.	.	.	.	.
.	.	16ee\JJ	.	.	.	.	.	.	.	.	.	.	.	.	.	.	.
8G#\	.	(16dd\LL	.	.	.	.	.	.	.	.	.	.	.	.	.	.	.
.	.	16ee\	.	.	.	.	.	.	.	.	.	.	.	.	.	.	.
8E\J	.	16dd\)	.	8gg#\	.	.	.	.	.	.	.	.	.	.	.	.	.
.	.	16ee\JJ	.	.	.	.	.	.	.	.	.	.	.	.	.	.	.
=12	=12	=12	=12	=12	=12	=12	=12	=12	=12	=12	=12	=12	=12	=12	=12	=12	=12
4A\	.	8cc#\	.	(16aa\LL	.	2ryy	.	.	.	.	.	.	.	.	.	2ryy	2ryy
.	.	.	.	16ccc#\	.	.	.	.	.	.	.	.	.	.	.	.	.
.	.	8r	.	16aa\)	.	.	.	.	.	.	.	.	.	.	.	.	.
.	.	.	.	16ccc#\JJ	.	.	.	.	.	.	.	.	.	.	.	.	.
4r	.	4r	.	(16aa\LL	.	.	.	.	.	.	.	.	.	.	.	.	.
.	.	.	.	16ccc#\	.	.	.	.	.	.	.	.	.	.	.	.	.
.	.	.	.	16aa\	.	.	.	.	.	.	.	.	.	.	.	.	.
.	.	.	.	16ccc#\JJ)	.	.	.	.	.	.	.	.	.	.	.	.	.
!LO:LB:g=original	!	!	!	!	!	!	!	!	!	!	!	!	!	!	!	!	!
=13	=13	=13	=13	=13	=13	=13	=13	=13	=13	=13	=13	=13	=13	=13	=13	=13	=13
!	!	!	!	!	!	!	!LO:N:vis=00	!	!LO:N:vis=00	!	!LO:N:vis=00	!	!	!LO:N:vis=0	!	!	!
8D\L	.	(16dd\LL	.	(16ff#\LL	.	2ryy	0r	.	0r	.	0r	.	.	1r	.	2ryy	2ryy
.	.	16ff#\JJ)	.	16ddd\JJ)	.	.	.	.	.	.	.	.	.	.	.	.	.
8F#\	6	16r	.	16r	.	.	.	.	.	.	.	.	.	.	.	.	.
.	.	16dd\	.	(16ff#\	.	.	.	.	.	.	.	.	.	.	.	.	.
8A\	4	(16cc#\LL	.	16ee\LL	.	.	.	.	.	.	.	.	.	.	.	.	.
.	.	16ee\JJ)	.	16ccc#\JJ)	.	.	.	.	.	.	.	.	.	.	.	.	.
8A#X\J	3	16r	.	16r	.	.	.	.	.	.	.	.	.	.	.	.	.
.	.	16cc#\	.	16ee\	.	.	.	.	.	.	.	.	.	.	.	.	.
!	!	!	!	!LO:LB:g=original	!	!	!	!	!	!	!	!	!	!	!	!	!
=14	=14	=14	=14	=14	=14	=14	=14	=14	=14	=14	=14	=14	=14	=14	=14	=14	=14
8B\L	.	(16b\LL	.	(16dd\LL	.	2ryy	.	.	.	.	.	.	.	.	.	2ryy	2ryy
.	.	16dd\JJ)	.	16bb\JJ)	.	.	.	.	.	.	.	.	.	.	.	.	.
8G#\	3	16r	.	16r	.	.	.	.	.	.	.	.	.	.	.	.	.
.	.	16b\	.	16dd\	.	.	.	.	.	.	.	.	.	.	.	.	.
8An\	9	(16a\LL	.	16cc#\LL	.	.	.	.	.	.	.	.	.	.	.	.	.
.	.	16cc#\JJ)	.	16aa\JJ	.	.	.	.	.	.	.	.	.	.	.	.	.
8D#X\J	5	16r	.	16r	.	.	.	.	.	.	.	.	.	.	.	.	.
.	.	16a/	.	16cc#\	.	.	.	.	.	.	.	.	.	.	.	.	.
=15	=15	=15	=15	=15	=15	=15	=15	=15	=15	=15	=15	=15	=15	=15	=15	=15	=15
!	!	!LO:TX:b:t=t	!	!	!	!	!	!	!	!	!	!	!	!	!	!	!
8E/L	.	8a/L	.	8cc#t\L	.	2ryy	.	.	.	.	.	.	.	4r	.	2ryy	2ryy
8BB/	.	8g#/J	.	8b\J	.	.	.	.	.	.	.	.	.	.	.	.	.
8EE/J	.	4r	.	4r	.	.	.	.	.	.	.	.	.	8r	.	.	.
!	!	!	!	!	!	!	!	!	!	!	!	!	!	!LO:TX:a:t=Solo.	!	!	!
8r	.	.	.	.	.	.	.	.	.	.	.	.	.	8ee\	San-	.	.
!	!	!LO:LB:g=original	!	!	!	!	!	!	!	!	!	!	!	!	!	!	!
=16	=16	=16	=16	=16	=16	=16	=16	=16	=16	=16	=16	=16	=16	=16	=16	=16	=16
!LO:TX:a:t=P:problem= mixed beam	!	!LO:N:vis=00	!	!LO:N:vis=0	!	!	!	!	!	!	!	!	!	!	!	!	!
!LO:TX:a:t=Solo	!	!LO:TX:a:t=4	!	!LO:TX:a:t=3	!	!	!	!	!	!	!	!	!	!	!	!	!
8AA/L	.	0r	.	1r	.	2ryy	.	.	.	.	.	.	.	8a\	-cta	2ryy	2ryy
*	*	*	*	*	*	*	*	*	*	*	*	*	*	*	*ij	*	*
8A\	.	.	.	.	.	.	.	.	.	.	.	.	.	16a\LL	San-	.	.
.	.	.	.	.	.	.	.	.	.	.	.	.	.	16cc#\JJ	.	.	.
8G#\	.	.	.	.	.	.	.	.	.	.	.	.	.	8b\	-cta	.	.
*	*	*	*	*	*	*	*	*	*	*	*	*	*	*	*Xij	*	*
8E\J	.	.	.	.	.	.	.	.	.	.	.	.	.	16b\LL	Ma-	.	.
.	.	.	.	.	.	.	.	.	.	.	.	.	.	16dd\JJ	.	.	.
=17	=17	=17	=17	=17	=17	=17	=17	=17	=17	=17	=17	=17	=17	=17	=17	=17	=17
!LO:TX:a:t=P:problem= mixed beam	!	!	!	!	!	!	!LO:N:vis=0	!	!LO:N:vis=0	!	!LO:N:vis=0	!	!	!	!	!	!
8AA/L	.	.	.	.	.	2ryy	1r	.	1r	.	1r	.	.	16cc#\L	-ria	2ryy	2ryy
.	.	.	.	.	.	.	.	.	.	.	.	.	.	16dd\J	.	.	.
8A\	.	.	.	.	.	.	.	.	.	.	.	.	.	8ee\	.	.	.
8AA/J	.	.	.	.	.	.	.	.	.	.	.	.	.	8r	.	.	.
!	!	!	!	!	!	!	!	!	!	!	!	!	!	!LO:TX:a:t=P:problem=belka między 8 przechodzi przez kreskę taktową	!	!	!
8r	.	.	.	.	.	.	.	.	.	.	.	.	.	8e/	San-	.	.
=18	=18	=18	=18	=18	=18	=18	=18	=18	=18	=18	=18	=18	=18	=18	=18	=18	=18
!LO:TX:a:t=P:problem= mixed beam	!	!	!	!	!	!	!	!	!	!	!	!	!	!	!	!	!
8AA/L	.	.	.	2r	.	2ryy	.	.	.	.	.	.	.	8a/	.	2ryy	2ryy
8A\	.	.	.	.	.	.	.	.	.	.	.	.	.	16a\LL	-cta	.	.
.	.	.	.	.	.	.	.	.	.	.	.	.	.	16cc#\JJ	.	.	.
8G#\	6	.	.	.	.	.	.	.	.	.	.	.	.	8b\	De-	.	.
8E\J	.	.	.	.	.	.	.	.	.	.	.	.	.	16b\LL	-i	.	.
.	.	.	.	.	.	.	.	.	.	.	.	.	.	16dd\JJ	.	.	.
=19	=19	=19	=19	=19	=19	=19	=19	=19	=19	=19	=19	=19	=19	=19	=19	=19	=19
!LO:TX:a:t=P:problem= mixed beam	!	!	!	!	!	!	!	!	!	!	!	!	!	!	!	!	!
8AA/L	.	.	.	4r	.	2ryy	2r	.	2r	.	2r	.	.	16cc#\	Ge-	2ryy	2ryy
.	.	.	.	.	.	.	.	.	.	.	.	.	.	16dd\	-ni-	.	.
8A\	.	.	.	.	.	.	.	.	.	.	.	.	.	8ee\	-trix	.	.
8AA/J	.	.	.	16r	.	.	.	.	.	.	.	.	.	4r	.	.	.
!	!	!	!	!	!LO:DY:b:t=po	!	!	!	!	!	!	!	!	!	!	!	!
.	.	.	.	16ee\	p	.	.	.	.	.	.	.	.	.	.	.	.
8r	.	.	.	32dd\LLL	.	.	.	.	.	.	.	.	.	.	.	.	.
.	.	.	.	32cc#\	.	.	.	.	.	.	.	.	.	.	.	.	.
.	.	.	.	32b\	.	.	.	.	.	.	.	.	.	.	.	.	.
.	.	.	.	32a\JJJ	.	.	.	.	.	.	.	.	.	.	.	.	.
!	!	!	!	!	!	!	!	!	!	!	!	!	!	!LO:LB:g=original	!	!	!
=20	=20	=20	=20	=20	=20	=20	=20	=20	=20	=20	=20	=20	=20	=20	=20	=20	=20
!LO:TX:b:t=Tutti	!	!	!LO:DY:a	!	!	!	!	!	!LO:TX:a:t=Tutti	!	!	!	!	!LO:TX:a:t=Tutti	!	!	!
*tremolo	*	*tremolo	*	*	*	*	*	*	*	*	*	*	*	*	*	*	*
!	!	!	!LO:DY:a:t=p.	!	!	!	!	!	!	!	!	!	!	!	!	!	!
8A\L	6 4	16dd\LL	p	(16ff#\LL	.	2ryy	4A\	O-	4d\	O-	4a\	San-	.	4ff#\	San-	2ryy	2ryy
.	.	16dd\	.	16dd\JJ)	.	.	.	.	.	.	.	.	.	.	.	.	.
8A\	.	16dd\	.	16r	.	.	.	.	.	.	.	.	.	.	.	.	.
.	.	16dd\	.	16aa\	.	.	.	.	.	.	.	.	.	.	.	.	.
8A\	.	16dd\	.	(16aa\LL	.	.	4A\	-ra	4d\	-ra	4a\	-cta	.	4ff#\	-cta	.	.
.	.	16dd\	.	16ff#\)	.	.	.	.	.	.	.	.	.	.	.	.	.
8A\J	.	16dd\	.	(16ff#\	.	.	.	.	.	.	.	.	.	.	.	.	.
.	.	16dd\JJ	.	16dd\JJ)	.	.	.	.	.	.	.	.	.	.	.	.	.
=21	=21	=21	=21	=21	=21	=21	=21	=21	=21	=21	=21	=21	=21	=21	=21	=21	=21
*	*	*	*	*	*	*	*	*ij	*	*ij	*	*	*	*	*	*	*
8A\L	5 3	16cc#\LL	.	(16ee\LL	.	2ryy	4A\	O-	4c#\	O-	4a\	Vir-	.	4ee\	Vir-	2ryy	2ryy
.	.	16cc#\	.	16cc#\JJ)	.	.	.	.	.	.	.	.	.	.	.	.	.
8A\	.	16cc#\	.	16r	.	.	.	.	.	.	.	.	.	.	.	.	.
.	.	16cc#\	.	16aa\	.	.	.	.	.	.	.	.	.	.	.	.	.
8A\	.	16cc#\	.	(16aa\LL	.	.	8A\	-ra	8c#\	-ra	4a\	-go	.	4ee\	-go	.	.
*	*	*	*	*	*	*	*	*Xij	*	*Xij	*	*	*	*	*	*	*
.	.	16cc#\	.	16ee\)	.	.	.	.	.	.	.	.	.	.	.	.	.
8A\J	.	16cc#\	.	(16ee\	.	.	8A\	pro	8c#\	pro	.	.	.	.	.	.	.
.	.	16cc#\JJ	.	16cc#\JJ)	.	.	.	.	.	.	.	.	.	.	.	.	.
*Xtremolo	*	*Xtremolo	*	*	*	*	*	*	*	*	*	*	*	*	*	*	*
=22	=22	=22	=22	=22	=22	=22	=22	=22	=22	=22	=22	=22	=22	=22	=22	=22	=22
!	!	!	!	!	!	!	!	!	!LO:TX:a:t=P:problem=caudy półnut z prawej strony	!	!	!	!	!	!	!	!
8B\L	3	(32b\LLL	.	(32dd\LLL	.	2ryy	4G#\	no-	2e\	no-	4b\	Vir-	.	4dd\	Vir-	2ryy	2ryy
.	.	32a\	.	32cc#\	.	.	.	.	.	.	.	.	.	.	.	.	.
.	.	32b\	.	32dd\)	.	.	.	.	.	.	.	.	.	.	.	.	.
.	.	32cc#\JJJ)	.	32ee\JJJ	.	.	.	.	.	.	.	.	.	.	.	.	.
8G#\	.	16b`\LL	.	16dd\LL	.	.	.	.	.	.	.	.	.	.	.	.	.
.	.	16dd`\JJ	.	16bb\JJ	.	.	.	.	.	.	.	.	.	.	.	.	.
8A\	3	(32a\LLL	.	(32cc#\LLL	.	.	4A\	.	.	.	4a\	-gi-	.	4cc#\	-gi-	.	.
.	.	32g#\	.	32b\	.	.	.	.	.	.	.	.	.	.	.	.	.
.	.	32a\	.	32cc#\)	.	.	.	.	.	.	.	.	.	.	.	.	.
.	.	32b\JJJ)	.	32dd\JJJ	.	.	.	.	.	.	.	.	.	.	.	.	.
8D#X\J	5	16a`\LL	.	16cc#\LL	.	.	.	.	.	.	.	.	.	.	.	.	.
.	.	16cc#`\JJ	.	16aa\JJ	.	.	.	.	.	.	.	.	.	.	.	.	.
!	!	!	!	!	!	!	!	!	!LO:LB:g=original	!	!	!	!	!	!	!	!
=23	=23	=23	=23	=23	=23	=23	=23	=23	=23	=23	=23	=23	=23	=23	=23	=23	=23
4E\	.	8a/L	.	8cc#\L	.	2ryy	4E\	-bis	4e\	-bis	4g#\	-num	.	4b\	-num	2ryy	2ryy
.	.	8g#/J	.	8b\J	.	.	.	.	.	.	.	.	.	.	.	.	.
!	!	!	!	!LO:LB:g=original	!	!	!	!	!	!	!	!	!	!	!	!	!
4r	.	4r	.	4r	.	.	4r	.	4r	.	8r	.	.	4r	.	.	.
!	!	!	!	!	!	!	!	!	!	!	!LO:TX:a:t=ſolo	!	!	!	!	!	!
!	!	!	!	!	!	!	!	!	!	!	!LO:TX:a:t=P:problem=belka między 8 przechodzi przez kreskę taktową	!	!	!	!	!	!
.	.	.	.	.	.	.	.	.	.	.	8b\	Ma-	.	.	.	.	.
=24	=24	=24	=24	=24	=24	=24	=24	=24	=24	=24	=24	=24	=24	=24	=24	=24	=24
!LO:TX:a:t=P:problem= mixed beam	!	!	!	!LO:N:vis=0	!	!	!LO:N:vis=00	!	!	!	!	!	!	!	!	!	!
!LO:TX:a:t=Solo	!	!	!	!LO:TX:a:t=3	!	!	!LO:TX:a:t=4	!	!LO:N:vis=00	!	!	!	!	!LO:N:vis=00	!	!	!
8EE/L	.	2r	.	1r	.	2ryy	0r	.	0r	.	8e\	.	.	0r	.	2ryy	2ryy
8E\	.	.	.	.	.	.	.	.	.	.	16e\LL	-ter	.	.	.	.	.
.	.	.	.	.	.	.	.	.	.	.	16g#\JJ	.	.	.	.	.	.
!	!	!	!	!	!	!	!	!	!	!	!LO:LB:g=original	!	!	!	!	!	!
*	*	*	*	*	*	*	*	*	*	*	*	*ij	*	*	*	*	*
8D#X\	6	.	.	.	.	.	.	.	.	.	8f#\	Ma-	.	.	.	.	.
8BB\J	.	.	.	.	.	.	.	.	.	.	16f#\LL	-ter	.	.	.	.	.
.	.	.	.	.	.	.	.	.	.	.	16a\JJ	.	.	.	.	.	.
*	*	*	*	*	*	*	*	*	*	*	*	*Xij	*	*	*	*	*
=25	=25	=25	=25	=25	=25	=25	=25	=25	=25	=25	=25	=25	=25	=25	=25	=25	=25
!LO:TX:a:t=P:problem= mixed beam	!	!	!	!	!	!	!	!	!	!	!	!	!	!	!	!	!
8EE/L	.	2r	.	.	.	2ryy	.	.	.	.	16g#\LL	Chri	.	.	.	2ryy	2ryy
.	.	.	.	.	.	.	.	.	.	.	16a\JJ	.	.	.	.	.	.
8E\	.	.	.	.	.	.	.	.	.	.	8b\	ſti	.	.	.	.	.
8EE/J	.	.	.	.	.	.	.	.	.	.	8r	.	.	.	.	.	.
8r	.	.	.	.	.	.	.	.	.	.	8d\	Ma-	.	.	.	.	.
!LO:LB:g=original	!	!	!	!	!	!	!	!	!	!	!	!	!	!	!	!	!
=26	=26	=26	=26	=26	=26	=26	=26	=26	=26	=26	=26	=26	=26	=26	=26	=26	=26
!LO:TX:a:t=P:problem= mixed beam	!	!	!	!	!	!	!	!	!	!	!	!	!	!	!	!	!
8EE/L	.	2r	.	2r	.	2ryy	.	.	.	.	8e\	-ter	.	.	.	2ryy	2ryy
8E\	.	.	.	.	.	.	.	.	.	.	16e\LL	Di-	.	.	.	.	.
.	.	.	.	.	.	.	.	.	.	.	16g#\JJ	.	.	.	.	.	.
8D#X\	.	.	.	.	.	.	.	.	.	.	8f#\	-vi-	.	.	.	.	.
8BB\J	.	.	.	.	.	.	.	.	.	.	16g#\LL	-na	.	.	.	.	.
.	.	.	.	.	.	.	.	.	.	.	16a\JJ	.	.	.	.	.	.
=27	=27	=27	=27	=27	=27	=27	=27	=27	=27	=27	=27	=27	=27	=27	=27	=27	=27
!LO:TX:a:t=P:problem= mixed beam	!	!	!	!	!	!	!	!	!	!	!	!	!	!	!	!	!
8EE/L	.	2r	.	4r	.	2ryy	.	.	.	.	16g#\	Gra-	.	.	.	2ryy	2ryy
.	.	.	.	.	.	.	.	.	.	.	16a\	-ti-	.	.	.	.	.
8E\	.	.	.	.	.	.	.	.	.	.	8b\	-a	.	.	.	.	.
8EE/J	.	.	.	16r	.	.	.	.	.	.	4r	.	.	.	.	.	.
!	!	!	!	!	!LO:DY:b:t=for	!	!	!	!	!	!	!	!	!	!	!	!
.	.	.	.	16b/	f	.	.	.	.	.	.	.	.	.	.	.	.
8r	.	.	.	32a/LLL	.	.	.	.	.	.	.	.	.	.	.	.	.
.	.	.	.	32g#/	.	.	.	.	.	.	.	.	.	.	.	.	.
.	.	.	.	32f#/	.	.	.	.	.	.	.	.	.	.	.	.	.
.	.	.	.	32e/JJJ	.	.	.	.	.	.	.	.	.	.	.	.	.
=28	=28	=28	=28	=28	=28	=28	=28	=28	=28	=28	=28	=28	=28	=28	=28	=28	=28
!LO:TX:b:t=Tutti	!	!LO:TX:b:t=a	!LO:DY:a	!	!	!	!	!	!	!	!	!	!LO:DY:a:t=f.	!	!	!	!
*tremolo	*	*tremolo	*	*	*	*	*	*	*	*	*	*	*	*	*	*	*
!	!	!	!LO:DY:b:t=for.	!	!	!	!	!	!	!	!	!	!	!	!	!	!
8E\L	6 4	16a/LL	f	(16cc#\LL	.	2ryy	4E\	o-	4A/	O-	4e\	o-	f	4cc#\	O-	2ryy	2ryy
.	.	16a/	.	16a\JJ)	.	.	.	.	.	.	.	.	.	.	.	.	.
8E\	.	16a/	.	16r	.	.	.	.	.	.	.	.	.	.	.	.	.
.	.	16a/	.	16ee\	.	.	.	.	.	.	.	.	.	.	.	.	.
8E\	.	16a/	.	(16ee\LL	.	.	4E\	-ra	4A/	-ra	4e\	-ra	.	4cc#\	-ra	.	.
.	.	16a/	.	16cc#\)	.	.	.	.	.	.	.	.	.	.	.	.	.
8E\J	.	16a/	.	(16cc#\	.	.	.	.	.	.	.	.	.	.	.	.	.
.	.	16a/JJ	.	16a\JJ)	.	.	.	.	.	.	.	.	.	.	.	.	.
=29	=29	=29	=29	=29	=29	=29	=29	=29	=29	=29	=29	=29	=29	=29	=29	=29	=29
*	*	*	*	*	*	*	*	*ij	*	*ij	*	*ij	*	*	*ij	*	*
8E\L	5 3	16g#/LL	.	(16b/LL	.	2ryy	4E\	o-	4G#/	O-	4e\	o-	.	4b\	O-	2ryy	2ryy
.	.	16g#/	.	16g#/JJ)	.	.	.	.	.	.	.	.	.	.	.	.	.
8E\	.	16g#/	.	16r	.	.	.	.	.	.	.	.	.	.	.	.	.
.	.	16g#/	.	16ee\	.	.	.	.	.	.	.	.	.	.	.	.	.
8E\	.	16g#/	.	(16ee\LL	.	.	8E\	-ra	8G#/	-ra	8e\	-ra	.	8b\L	-ra	.	.
.	.	16g#/	.	16b\)	.	.	.	.	.	.	.	.	.	.	.	.	.
*	*	*	*	*	*	*	*	*Xij	*	*Xij	*	*Xij	*	*	*Xij	*	*
8E\J	.	16g#/	.	(16b\	.	.	8E\	pro	8G#/	pro	8g#\	pro	.	8b\J	pro-	.	.
.	.	16g#/JJ	.	16g#\JJ)	.	.	.	.	.	.	.	.	.	.	.	.	.
*Xtremolo	*	*Xtremolo	*	*	*	*	*	*	*	*	*	*	*	*	*	*	*
!	!	!	!	!	!	!	!LO:LB:g=original	!	!	!	!LO:LB:g=original	!	!	!	!	!	!
=30	=30	=30	=30	=30	=30	=30	=30	=30	=30	=30	=30	=30	=30	=30	=30	=30	=30
8F#\L	3	(32f#/LLL	.	(32a/LLL	.	2ryy	(4D#X\	no-	2B\	no-	(4f#\	no-	.	(4a\	-no-	2ryy	2ryy
.	.	32e/	.	32g#/	.	.	.	.	.	.	.	.	.	.	.	.	.
.	.	32f#/	.	32a/)	.	.	.	.	.	.	.	.	.	.	.	.	.
.	.	32g#/JJJ)	.	32b/JJJ	.	.	.	.	.	.	.	.	.	.	.	.	.
!	!	!	!	!LO:TX:a:t=P:problem= mixed beam	!	!	!	!	!	!	!	!	!	!	!	!	!
8D#X\	.	16f#/LL	.	16a/LL	.	.	.	.	.	.	.	.	.	.	.	.	.
.	.	16a/JJ	.	16ff#\JJ	.	.	.	.	.	.	.	.	.	.	.	.	.
8E\	3	(32e/LLL	.	32g#/LLL	.	.	4E\)	.	.	.	4e\)	.	.	4g#\)	.	.	.
.	.	32d#X/	.	(32f#/	.	.	.	.	.	.	.	.	.	.	.	.	.
.	.	32e/	.	32g#/	.	.	.	.	.	.	.	.	.	.	.	.	.
.	.	32f#/JJJ)	.	32a/JJJ)	.	.	.	.	.	.	.	.	.	.	.	.	.
8AA#X\J	.	16e/LL	.	16g#/LL	.	.	.	.	.	.	.	.	.	.	.	.	.
.	.	16g#/JJ	.	16ee/JJ	.	.	.	.	.	.	.	.	.	.	.	.	.
!	!	!	!	!	!	!	!	!	!	!	!LO:LB:g=original	!	!	!	!	!	!
=31	=31	=31	=31	=31	=31	=31	=31	=31	=31	=31	=31	=31	=31	=31	=31	=31	=31
!LO:TX:a:t=P:problem= mixed beam	!	!	!	!	!	!	!	!	!	!	!	!	!	!	!	!	!
8BB/L	#	8e/L	.	8g#/L	.	2ryy	4AA/	-bis	4B\	-bis	4d\	-bis	.	4f#/	-bis	2ryy	2ryy
8B\	.	8d#X/	.	8f#/	.	.	.	.	.	.	.	.	.	.	.	.	.
8BB/J	.	8d#/J	.	8f#/J	.	.	4r	.	4r	.	4r	.	.	4r	.	.	.
8r	.	8r	.	8r	.	.	.	.	.	.	.	.	.	.	.	.	.
=32	=32	=32	=32	=32	=32	=32	=32	=32	=32	=32	=32	=32	=32	=32	=32	=32	=32
!	!	!	!	!	!	!	!LO:TX:a:t=1	!	!	!	!	!	!	!	!	!	!
2r	.	8r	.	4dd#X\	.	2ryy	2r	.	2r	.	4r	.	.	4dd#X\	Ma-	2ryy	2ryy
.	.	8B/L	.	.	.	.	.	.	.	.	.	.	.	.	.	.	.
!	!	!	!	!LO:TX:a:t=P:problem= mixed beam	!	!	!	!	!	!	!	!	!	!	!	!	!
.	.	8e/	.	16ee\LL	.	.	.	.	.	.	8r	.	.	8ee\	-ter	.	.
.	.	.	.	16gg#\	.	.	.	.	.	.	.	.	.	.	.	.	.
.	.	8g#/J	.	16bb\	.	.	.	.	.	.	8g#\	pu-	.	8b\	pu-	.	.
.	.	.	.	16b/JJ	.	.	.	.	.	.	.	.	.	.	.	.	.
!	!	!LO:LB:g=original	!	!LO:LB:g=original	!	!	!	!	!	!	!	!	!	!	!	!	!
=33	=33	=33	=33	=33	=33	=33	=33	=33	=33	=33	=33	=33	=33	=33	=33	=33	=33
8r	.	4f#/	.	4a/	.	2ryy	8r	.	8r	.	8.f#\	-ri-	.	8.a\	-ry-	2ryy	2ryy
8BB/	#	.	.	.	.	.	8BB/	o-	8B\	O-	.	.	.	.	.	.	.
.	.	.	.	.	.	.	.	.	.	.	16f#\	-ſsi-	.	16a\	-si-	.	.
4E\	.	4e/	.	4g#/	.	.	4E\	-ra	4B\	-ra	4e\	-ma	.	4g#\	-ma	.	.
!	!	!	!	!	!	!	!	!	!LO:LB:g=original	!	!	!	!	!LO:LB:g=original	!	!	!
=34	=34	=34	=34	=34	=34	=34	=34	=34	=34	=34	=34	=34	=34	=34	=34	=34	=34
!	!	!	!	!	!	!	!LO:TX:a:t=1	!	!	!	!	!	!	!	!	!	!
2r	.	8r	.	4dd#X\	.	2ryy	2r	.	2r	.	4r	.	.	4dd#X\	Ma-	2ryy	2ryy
.	.	8B/L	.	.	.	.	.	.	.	.	.	.	.	.	.	.	.
!	!	!	!	!LO:TX:a:t=P:problem= mixed beam	!	!	!	!	!	!	!	!	!	!	!	!	!
.	.	8e/	.	16ee\LL	.	.	.	.	.	.	8r	.	.	8ee\	-ter	.	.
.	.	.	.	16gg#\	.	.	.	.	.	.	.	.	.	.	.	.	.
.	.	8g#/J	.	16bb\	.	.	.	.	.	.	8g#\	Caſ-	.	8b\	Cas-	.	.
.	.	.	.	16b/JJ	.	.	.	.	.	.	.	.	.	.	.	.	.
=35	=35	=35	=35	=35	=35	=35	=35	=35	=35	=35	=35	=35	=35	=35	=35	=35	=35
8r	.	4f#/	.	4a/	.	2ryy	8r	.	8r	.	8.f#\	-tis-	.	8.a\	-ti-	2ryy	2ryy
*	*	*	*	*	*	*	*	*ij	*	*ij	*	*	*	*	*	*	*
8BB/	#	.	.	.	.	.	8BB/	o-	8B\	O-	.	.	.	.	.	.	.
.	.	.	.	.	.	.	.	.	.	.	16f#\	-ſi-	.	16a\	-ſsi-	.	.
4E\	.	4e/	.	4g#/	.	.	4E\	-ra	4B\	-ra	4e\	-ma	.	4g#\	-ma	.	.
*	*	*	*	*	*	*	*	*Xij	*	*Xij	*	*	*	*	*	*	*
!	!	!	!	!	!	!	!	!	!LO:LB:g=original	!	!	!	!	!	!	!	!
=36	=36	=36	=36	=36	=36	=36	=36	=36	=36	=36	=36	=36	=36	=36	=36	=36	=36
!	!	!	!	!	!	!	!LO:N:vis=0	!	!	!	!	!	!	!	!	!	!
8r	.	8r	.	8r	.	2ryy	1r	.	2r	.	2r	.	.	2cc#\	O-	2ryy	2ryy
8A\L	3	8e/L	.	8cc#\L	.	.	.	.	.	.	.	.	.	.	.	.	.
8A\	.	8e/	.	8cc#\	.	.	.	.	.	.	.	.	.	.	.	.	.
8A\J	.	8e/J	.	8dd\J	.	.	.	.	.	.	.	.	.	.	.	.	.
=37	=37	=37	=37	=37	=37	=37	=37	=37	=37	=37	=37	=37	=37	=37	=37	=37	=37
8r	.	8r	.	8r	.	2ryy	.	.	4r	.	2a\	O-	.	2dd#X\	.	2ryy	2ryy
8F#\L	6|	8a/L	.	8dd#X\L	.	.	.	.	.	.	.	.	.	.	.	.	.
8F#\	.	8a/	.	8dd#\	.	.	.	.	4f#\	o-	.	.	.	.	.	.	.
8F#\J	.	8a/J	.	8dd#\J	.	.	.	.	.	.	.	.	.	.	.	.	.
=38	=38	=38	=38	=38	=38	=38	=38	=38	=38	=38	=38	=38	=38	=38	=38	=38	=38
8E\L	.	4g#/	.	4ee\	.	2ryy	8r	.	8B\	-ra	8g#\	-ra	.	8ee\	-ra	2ryy	2ryy
*	*	*	*	*	*	*	*	*ij	*	*ij	*	*ij	*	*	*	*	*
8E\	.	.	.	.	.	.	8E\	o-	8B\	o-	8g#\	o-	.	8ee\	o-	.	.
8G#\	6	4r	.	4r	.	.	8G#\	-ra	8B\	-ra	8g#\	-ra	.	8ee\	-ra	.	.
*	*	*	*	*	*	*	*	*Xij	*	*Xij	*	*Xij	*	*	*	*	*
8E\J	.	.	.	.	.	.	8E\	pro	8B\	pro	8g#\	pro	.	8ee\	pro	.	.
=39	=39	=39	=39	=39	=39	=39	=39	=39	=39	=39	=39	=39	=39	=39	=39	=39	=39
!LO:TX:a:t=P:problem= mixed beam	!	!	!	!	!	!	!	!	!	!	!	!	!	!	!	!	!
8B\L	4	2r	.	2r	.	2ryy	8B\	no-	8B\	no-	8g#\	no-	.	8ee\	no-	2ryy	2ryy
8BB/J	#	.	.	.	.	.	8BB/	-bis	8B\	-bis	8f#\	-bis	.	8dd#X\	-bis	.	.
4r	.	.	.	.	.	.	4r	.	4r	.	4r	.	.	4r	.	.	.
!LO:LB:g=original	!	!	!	!	!	!	!	!	!	!	!LO:LB:g=original	!	!	!	!	!	!
=40	=40	=40	=40	=40	=40	=40	=40	=40	=40	=40	=40	=40	=40	=40	=40	=40	=40
*	*	*	*	*	*	*	*	*	*	*ij	*	*	*	*	*	*	*
8r	.	(16a/LL	.	4.dd#X\	.	2ryy	2ryy	.	2B\	o-	2f#\	O-	.	2dd\	O-	2ryy	2ryy
.	.	16b/	.	.	.	.	.	.	.	.	.	.	.	.	.	.	.
8BB/L	7_ #_	16a/)	.	.	.	.	.	.	.	.	.	.	.	.	.	.	.
.	.	16b/JJ	.	.	.	.	.	.	.	.	.	.	.	.	.	.	.
8D#X/	.	(16a/LL	.	.	.	.	.	.	.	.	.	.	.	.	.	.	.
.	x	16b/	.	.	.	.	.	.	.	.	.	.	.	.	.	.	.
8BB/J	.	16a/)	.	8dd#\	.	.	.	.	.	.	.	.	.	.	.	.	.
.	.	16b/JJ	.	.	.	.	.	.	.	.	.	.	.	.	.	.	.
=41	=41	=41	=41	=41	=41	=41	=41	=41	=41	=41	=41	=41	=41	=41	=41	=41	=41
4E\	.	8g#/	.	(16ee\LL	.	2ryy	2ryy	.	4B\	-ra	4g#\	-ra	.	4ee\	-ra	2ryy	2ryy
.	.	.	.	16gg#\)	.	.	.	.	.	.	.	.	.	.	.	.	.
.	.	8r	.	16ee\	.	.	.	.	.	.	.	.	.	.	.	.	.
.	.	.	.	(16gg#\JJ	.	.	.	.	.	.	.	.	.	.	.	.	.
4r	.	4r	.	16ee\LL	.	.	.	.	4r	.	4r	.	.	4r	.	.	.
.	.	.	.	16gg#\)	.	.	.	.	.	.	.	.	.	.	.	.	.
.	.	.	.	16ee\	.	.	.	.	.	.	.	.	.	.	.	.	.
.	.	.	.	16gg#\JJ	.	.	.	.	.	.	.	.	.	.	.	.	.
=42	=42	=42	=42	=42	=42	=42	=42	=42	=42	=42	=42	=42	=42	=42	=42	=42	=42
*	*	*	*	*	*	*	*	*	*	*	*	*ij	*	*	*ij	*	*
8r	.	(16a/LL	.	4.dd#X\	.	2ryy	2BB/	o-	2B\	o-	2f#\	O-	.	2dd\	O-	2ryy	2ryy
.	.	16b/	.	.	.	.	.	.	.	.	.	.	.	.	.	.	.
8BB/L	7 #	16a/)	.	.	.	.	.	.	.	.	.	.	.	.	.	.	.
.	.	16b/JJ	.	.	.	.	.	.	.	.	.	.	.	.	.	.	.
8D#X/	.	(16a/LL	.	.	.	.	.	.	.	.	.	.	.	.	.	.	.
.	.	16b/	.	.	.	.	.	.	.	.	.	.	.	.	.	.	.
8BB/J	.	16a/	.	8dd#\	.	.	.	.	.	.	.	.	.	.	.	.	.
.	.	16b/JJ)	.	.	.	.	.	.	.	.	.	.	.	.	.	.	.
=43	=43	=43	=43	=43	=43	=43	=43	=43	=43	=43	=43	=43	=43	=43	=43	=43	=43
4E\	.	4g#/	.	(16ee\LL	.	2ryy	4E\	-ra	4B\	-ra	4g#\	-ra	.	4ee\	-ra	2ryy	2ryy
*	*	*	*	*	*	*	*	*ij	*	*Xij	*	*	*	*	*Xij	*	*
.	.	.	.	16gg#\	.	.	.	.	.	.	.	.	.	.	.	.	.
.	.	.	.	16ee\	.	.	.	.	.	.	.	.	.	.	.	.	.
.	.	.	.	16gg#\JJ)	.	.	.	.	.	.	.	.	.	.	.	.	.
8r	.	4r	.	4ee\	.	.	8r	.	8r	.	8r	.	.	8r	.	.	.
8E\	.	.	.	.	.	.	8E\	o-	8B\	O-	8g#\	O-	.	8ee\	o-	.	.
!	!	!	!	!	!	!	!	!	!	!	!	!	!	!LO:LB:g=original	!	!	!
=44	=44	=44	=44	=44	=44	=44	=44	=44	=44	=44	=44	=44	=44	=44	=44	=44	=44
!	!	!LO:TX:a:t=1	!	!	!	!	!	!	!	!	!	!	!	!	!	!	!
4A\	6 5	2r	.	2r	.	2ryy	8A\	-ra	8c#\	-ra	8a\	-ra	.	8cc#\	-ra	2ryy	2ryy
*	*	*	*	*	*	*	*	*Xij	*	*	*	*Xij	*	*	*	*	*
.	.	.	.	.	.	.	8A\	pro	8c#\	pro	8a\	pro	.	8ff#\	pro	.	.
!LO:TX:a:t=P:problem= mixed beam	!	!	!	!	!	!	!LO:TX:a:t=P:problem= mixed beam	!	!	!	!	!	!	!	!	!	!
8B\L	4	.	.	.	.	.	8B\L	no-	4B\	no-	8g#\L	no-	.	8ee\L	no-	.	.
8BB/J	3#	.	.	.	.	.	8BB/J	.	.	.	8f#\J	.	.	8dd#X\J	.	.	.
!	!	!LO:LB:g=original	!	!LO:LB:g=original	!	!	!LO:LB:g=original	!	!LO:LB:g=original	!	!	!	!	!	!	!	!
=45	=45	=45	=45	=45	=45	=45	=45	=45	=45	=45	=45	=45	=45	=45	=45	=45	=45
!	!	!	!	!	!	!	!LO:TX:a:t=P::t.45-67,72:problem=niekonsekwentny zapis&colon; 4\ kaudy z prawej strony	!	!	!	!	!	!	!	!	!	!
4E\	.	4r	.	4r	.	2ryy	4E\	-bis	4B\	-bis	4g#\	-bis	.	4ee\	-bis	2ryy	2ryy
4r	.	8r	.	16bb\LL	.	.	4r	.	4r	.	4r	.	.	4r	.	.	.
.	.	.	.	16aa\	.	.	.	.	.	.	.	.	.	.	.	.	.
.	.	32bb\LLL	.	16gg#\	.	.	.	.	.	.	.	.	.	.	.	.	.
.	.	32aa\	.	.	.	.	.	.	.	.	.	.	.	.	.	.	.
.	.	32gg#\	.	16ff#\JJ	.	.	.	.	.	.	.	.	.	.	.	.	.
.	.	32ff#\JJJ	.	.	.	.	.	.	.	.	.	.	.	.	.	.	.
=46	=46	=46	=46	=46	=46	=46	=46	=46	=46	=46	=46	=46	=46	=46	=46	=46	=46
!	!	!	!	!	!	!	!LO:TX:a:t=19	!	!LO:TX:a:t=19	!	!	!	!	!LO:TX:a:t=19	!	!	!
!	!	!	!	!	!	!	!LO:N:vis=00	!	!LO:N:vis=00	!	!LO:N:vis=00	!	!	!LO:N:vis=00	!	!	!
8E\L	.	8ee`\L	.	8ee`\L	.	2ryy	0r	.	0r	.	0r	.	.	0r	.	2ryy	2ryy
8e\	.	(16ee\L	.	(16ee\L	.	.	.	.	.	.	.	.	.	.	.	.	.
.	.	16gg#\JJ)	.	16gg#\JJ)	.	.	.	.	.	.	.	.	.	.	.	.	.
8d#X\	6	8ff#`\L	.	8ff#`\L	.	.	.	.	.	.	.	.	.	.	.	.	.
8B\J	.	(16ff#\L	.	(16ff#\L	.	.	.	.	.	.	.	.	.	.	.	.	.
.	.	16aa\JJ)	.	16aa\JJ)	.	.	.	.	.	.	.	.	.	.	.	.	.
=47	=47	=47	=47	=47	=47	=47	=47	=47	=47	=47	=47	=47	=47	=47	=47	=47	=47
8E\L	.	(16gg#\LL	.	(16gg#\LL	.	2ryy	.	.	.	.	.	.	.	.	.	2ryy	2ryy
.	.	16aa\J)	.	16aa\J)	.	.	.	.	.	.	.	.	.	.	.	.	.
8e\	.	8bb\J	.	8bb\J	.	.	.	.	.	.	.	.	.	.	.	.	.
8E\J	.	8r	.	8r	.	.	.	.	.	.	.	.	.	.	.	.	.
8r	.	8b\	.	8b\	.	.	.	.	.	.	.	.	.	.	.	.	.
=48	=48	=48	=48	=48	=48	=48	=48	=48	=48	=48	=48	=48	=48	=48	=48	=48	=48
8E\L	.	8ee`\L	.	8ee`\L	.	2ryy	.	.	.	.	.	.	.	.	.	2ryy	2ryy
8e\	.	(16ee\L	.	(16ee\L	.	.	.	.	.	.	.	.	.	.	.	.	.
.	.	16gg#\JJ)	.	16gg#\JJ)	.	.	.	.	.	.	.	.	.	.	.	.	.
8d#X\	.	8ff#`\L	.	8ff#`\L	.	.	.	.	.	.	.	.	.	.	.	.	.
8B\J	.	(16ff#\L	.	(16ff#\L	.	.	.	.	.	.	.	.	.	.	.	.	.
.	.	16aa\JJ)	.	16aa\JJ)	.	.	.	.	.	.	.	.	.	.	.	.	.
=49	=49	=49	=49	=49	=49	=49	=49	=49	=49	=49	=49	=49	=49	=49	=49	=49	=49
8E\L	.	(16gg#\LL	.	(16gg#\LL	.	2ryy	.	.	.	.	.	.	.	.	.	2ryy	2ryy
.	.	16aa\J)	.	16aa\J)	.	.	.	.	.	.	.	.	.	.	.	.	.
8e\	.	8bb\J	.	8bb\J	.	.	.	.	.	.	.	.	.	.	.	.	.
8E\J	.	4r	.	16r	.	.	.	.	.	.	.	.	.	.	.	.	.
.	.	.	.	16bb\LL	.	.	.	.	.	.	.	.	.	.	.	.	.
.	.	.	.	16qqaa/	.	.	.	.	.	.	.	.	.	.	.	.	.
8r	.	.	.	16gg#\	.	.	.	.	.	.	.	.	.	.	.	.	.
.	.	.	.	16qqff#/	.	.	.	.	.	.	.	.	.	.	.	.	.
.	.	.	.	16ee\JJ	.	.	.	.	.	.	.	.	.	.	.	.	.
=50	=50	=50	=50	=50	=50	=50	=50	=50	=50	=50	=50	=50	=50	=50	=50	=50	=50
!	!	!	!	!	!	!	!LO:N:vis=00	!	!LO:N:vis=00	!	!LO:N:vis=00	!	!	!LO:N:vis=00	!	!	!
*	*	*tremolo	*	*	*	*	*	*	*	*	*	*	*	*	*	*	*
8E\L	6 4	16aa\LL	.	(16ccc#\LL	.	2ryy	0r	.	0r	.	0r	.	.	0r	.	2ryy	2ryy
.	.	16aa\	.	16aa\JJ)	.	.	.	.	.	.	.	.	.	.	.	.	.
8E\	.	16aa\	.	16r	.	.	.	.	.	.	.	.	.	.	.	.	.
.	.	16aa\	.	16ee\	.	.	.	.	.	.	.	.	.	.	.	.	.
8E\	.	16aa\	.	(16ee\LL	.	.	.	.	.	.	.	.	.	.	.	.	.
.	.	16aa\	.	16aa\)	.	.	.	.	.	.	.	.	.	.	.	.	.
8E\J	.	16aa\	.	(16aa\	.	.	.	.	.	.	.	.	.	.	.	.	.
.	.	16aa\JJ	.	16ccc#\JJ)	.	.	.	.	.	.	.	.	.	.	.	.	.
=51	=51	=51	=51	=51	=51	=51	=51	=51	=51	=51	=51	=51	=51	=51	=51	=51	=51
8E\L	5 #	16gg#\LL	.	(16bb\LL	.	2ryy	.	.	.	.	.	.	.	.	.	2ryy	2ryy
.	.	16gg#\	.	16gg#\JJ)	.	.	.	.	.	.	.	.	.	.	.	.	.
8E\	.	16gg#\	.	16r	.	.	.	.	.	.	.	.	.	.	.	.	.
.	.	16gg#\	.	16ee\	.	.	.	.	.	.	.	.	.	.	.	.	.
8E\	.	16gg#\	.	(16ee\LL	.	.	.	.	.	.	.	.	.	.	.	.	.
.	.	16gg#\	.	16gg#\)	.	.	.	.	.	.	.	.	.	.	.	.	.
8E\J	.	16gg#\	.	(16gg#\	.	.	.	.	.	.	.	.	.	.	.	.	.
!	!	!	!	!LO:TX:b:t=Volti Subito	!	!	!	!	!	!	!	!	!	!	!	!	!
.	.	16gg#\JJ	.	16bb\JJ)	.	.	.	.	.	.	.	.	.	.	.	.	.
*Xtremolo	*	*	*	*	*	*	*	*	*	*	*	*	*	*	*	*	*
!LO:LB:g=original	!	!	!	!LO:PB:g=original	!	!	!	!	!	!	!	!	!	!	!	!	!
=52	=52	=52	=52	=52	=52	=52	=52	=52	=52	=52	=52	=52	=52	=52	=52	=52	=52
8D#X\L	6	16ff#\LL	.	16aa\LL	.	2ryy	.	.	.	.	.	.	.	.	.	2ryy	2ryy
.	.	16ff#\	.	16ff#X\	.	.	.	.	.	.	.	.	.	.	.	.	.
8BB\	.	16ff#\	.	16dd#X\	.	.	.	.	.	.	.	.	.	.	.	.	.
.	.	16ff#\JJ	.	16b\JJ	.	.	.	.	.	.	.	.	.	.	.	.	.
*	*	*Xtremolo	*	*	*	*	*	*	*	*	*	*	*	*	*	*	*
8E\	.	8ee\L	.	16gg#\LL	.	.	.	.	.	.	.	.	.	.	.	.	.
.	.	.	.	16ee\	.	.	.	.	.	.	.	.	.	.	.	.	.
8G#\J	6	16gg#\L	.	16bb\	.	.	.	.	.	.	.	.	.	.	.	.	.
.	.	16ee\JJ	.	16gg#\JJ	.	.	.	.	.	.	.	.	.	.	.	.	.
=53	=53	=53	=53	=53	=53	=53	=53	=53	=53	=53	=53	=53	=53	=53	=53	=53	=53
!LO:TX:a:t=P:problem= mixed beam	!	!	!	!	!	!	!	!	!	!	!	!	!	!	!	!	!
8B\L	4	8ee\L	.	8gg#t\L	.	2ryy	.	.	.	.	.	.	.	.	.	2ryy	2ryy
8BB/	#	8dd#X\J	.	8ff#\J	.	.	.	.	.	.	.	.	.	.	.	.	.
8BB/J	.	4r	.	4r	.	.	.	.	.	.	.	.	.	.	.	.	.
8r	.	.	.	.	.	.	.	.	.	.	.	.	.	.	.	.	.
=54	=54	=54	=54	=54	=54	=54	=54	=54	=54	=54	=54	=54	=54	=54	=54	=54	=54
!	!	!	!	!	!	!	!LO:N:vis=00	!	!LO:N:vis=00	!	!LO:N:vis=00	!	!	!LO:N:vis=00	!	!	!
8r	.	(16a/LL	.	4.dd#X\	.	2ryy	0r	.	0r	.	0r	.	.	0r	.	2ryy	2ryy
.	.	16b/	.	.	.	.	.	.	.	.	.	.	.	.	.	.	.
8BB/L	7_	16a/)	.	.	.	.	.	.	.	.	.	.	.	.	.	.	.
.	.	16b/JJ	.	.	.	.	.	.	.	.	.	.	.	.	.	.	.
8D#X/	.	(16a/LL	.	.	.	.	.	.	.	.	.	.	.	.	.	.	.
.	x	16b/	.	.	.	.	.	.	.	.	.	.	.	.	.	.	.
8BB/J	.	16a/)	.	8dd#\	.	.	.	.	.	.	.	.	.	.	.	.	.
.	.	16b/JJ	.	.	.	.	.	.	.	.	.	.	.	.	.	.	.
!	!	!LO:LB:g=original	!	!	!	!	!	!	!	!	!	!	!	!	!	!	!
=55	=55	=55	=55	=55	=55	=55	=55	=55	=55	=55	=55	=55	=55	=55	=55	=55	=55
4E\	.	8g#/	.	(16ee\LL	.	2ryy	.	.	.	.	.	.	.	.	.	2ryy	2ryy
.	.	.	.	16gg#\)	.	.	.	.	.	.	.	.	.	.	.	.	.
.	.	8r	.	16ee\	.	.	.	.	.	.	.	.	.	.	.	.	.
.	.	.	.	16gg#\JJ	.	.	.	.	.	.	.	.	.	.	.	.	.
4r	.	4r	.	(16ee\LL	.	.	.	.	.	.	.	.	.	.	.	.	.
.	.	.	.	16gg#\)	.	.	.	.	.	.	.	.	.	.	.	.	.
.	.	.	.	16ee\	.	.	.	.	.	.	.	.	.	.	.	.	.
.	.	.	.	16gg#\JJ	.	.	.	.	.	.	.	.	.	.	.	.	.
=56	=56	=56	=56	=56	=56	=56	=56	=56	=56	=56	=56	=56	=56	=56	=56	=56	=56
8r	.	(16a/LL	.	4.dd#X\	.	2ryy	.	.	.	.	.	.	.	.	.	2ryy	2ryy
.	.	16b/	.	.	.	.	.	.	.	.	.	.	.	.	.	.	.
8BB/L	7_	16a/)	.	.	.	.	.	.	.	.	.	.	.	.	.	.	.
.	.	16b/JJ	.	.	.	.	.	.	.	.	.	.	.	.	.	.	.
8D#X/	.	(16a/LL	.	.	.	.	.	.	.	.	.	.	.	.	.	.	.
.	x	16b/	.	.	.	.	.	.	.	.	.	.	.	.	.	.	.
8BB/J	.	16a/)	.	8dd#\	.	.	.	.	.	.	.	.	.	.	.	.	.
.	.	16b/JJ	.	.	.	.	.	.	.	.	.	.	.	.	.	.	.
=57	=57	=57	=57	=57	=57	=57	=57	=57	=57	=57	=57	=57	=57	=57	=57	=57	=57
4E\	.	8g#/	.	(16ee\LL	.	2ryy	.	.	.	.	.	.	.	.	.	2ryy	2ryy
.	.	.	.	16gg#\)	.	.	.	.	.	.	.	.	.	.	.	.	.
.	.	8r	.	16ee\	.	.	.	.	.	.	.	.	.	.	.	.	.
.	.	.	.	16gg#\JJ	.	.	.	.	.	.	.	.	.	.	.	.	.
4r	.	4r	.	(16ee\LL	.	.	.	.	.	.	.	.	.	.	.	.	.
.	.	.	.	16gg#\)	.	.	.	.	.	.	.	.	.	.	.	.	.
.	.	.	.	16ee\	.	.	.	.	.	.	.	.	.	.	.	.	.
.	.	.	.	16gg#\JJ	.	.	.	.	.	.	.	.	.	.	.	.	.
=58	=58	=58	=58	=58	=58	=58	=58	=58	=58	=58	=58	=58	=58	=58	=58	=58	=58
!	!	!	!	!	!	!	!LO:N:vis=00	!	!LO:N:vis=00	!	!LO:N:vis=0	!	!	!LO:N:vis=00	!	!	!
8AA/L	.	(16a\LL	.	(16cc#\LL	.	2ryy	0r	.	0r	.	1r	.	.	0r	.	2ryy	2ryy
.	.	16cc#\JJ)	.	16aa\JJ)	.	.	.	.	.	.	.	.	.	.	.	.	.
8C#/J	6	16r	.	16r	.	.	.	.	.	.	.	.	.	.	.	.	.
.	.	16a/	.	16cc#\	.	.	.	.	.	.	.	.	.	.	.	.	.
8E\L	4	(16g#/LL	.	(16b\LL	.	.	.	.	.	.	.	.	.	.	.	.	.
.	.	16b/JJ)	.	16gg#\JJ)	.	.	.	.	.	.	.	.	.	.	.	.	.
8E#X\J	3	16r	.	16r	.	.	.	.	.	.	.	.	.	.	.	.	.
.	.	16g#/	.	16b\	.	.	.	.	.	.	.	.	.	.	.	.	.
!	!	!	!	!LO:LB:g=original	!	!	!	!	!	!	!	!	!	!	!	!	!
=59	=59	=59	=59	=59	=59	=59	=59	=59	=59	=59	=59	=59	=59	=59	=59	=59	=59
8F#\L	9	(16f#/LL	.	(16a\LL	.	2ryy	.	.	.	.	.	.	.	.	.	2ryy	2ryy
.	.	16a/JJ)	.	16ff#\JJ)	.	.	.	.	.	.	.	.	.	.	.	.	.
8D#X\	3	16r	.	16r	.	.	.	.	.	.	.	.	.	.	.	.	.
.	.	16f#/	.	16a/	.	.	.	.	.	.	.	.	.	.	.	.	.
!	!	!	!	!LO:TX:a:t=P:problem= mixed beam	!	!	!	!	!	!	!	!	!	!	!	!	!
8E\	9	(16g#/LL	.	(16g#/LL	.	.	.	.	.	.	.	.	.	.	.	.	.
.	.	16g#/JJ)	.	16ee\JJ)	.	.	.	.	.	.	.	.	.	.	.	.	.
8A#X\J	5	16r	.	16r	.	.	.	.	.	.	.	.	.	.	.	.	.
.	.	16e/	.	16g#/	.	.	.	.	.	.	.	.	.	.	.	.	.
=60	=60	=60	=60	=60	=60	=60	=60	=60	=60	=60	=60	=60	=60	=60	=60	=60	=60
!LO:TX:a:t=P:problem= mixed beam	!	!	!	!	!	!	!	!	!	!	!	!	!	!	!	!	!
8B\L	.4	8e/L	.	16g#/LL	.	2ryy	.	.	.	.	4r	.	.	.	.	2ryy	2ryy
.	.	.	.	16B/J 16g#	.	.	.	.	.	.	.	.	.	.	.	.	.
8BB/J	3	8d#X/J	.	8f#/J	.	.	.	.	.	.	.	.	.	.	.	.	.
4r	.	4r	.	4r	.	.	.	.	.	.	8r	.	.	.	.	.	.
!	!	!	!	!	!	!	!	!	!	!	!LO:TX:a:t=ſolo	!	!	!	!	!	!
.	.	.	.	.	.	.	.	.	.	.	8b\	Ma-	.	.	.	.	.
=61	=61	=61	=61	=61	=61	=61	=61	=61	=61	=61	=61	=61	=61	=61	=61	=61	=61
!LO:TX:a:t=P:problem= mixed beam	!	!LO:N:vis=00	!	!LO:N:vis=0	!	!	!	!	!	!	!	!	!	!	!	!	!
!LO:TX:a:t=Solo	!	!LO:TX:a:t=4	!	!LO:TX:a:t=3	!	!	!	!	!	!	!	!	!	!	!	!	!
8EE/L	.	0r	.	1r	.	2ryy	.	.	.	.	8e\	-ter	.	.	.	2ryy	2ryy
8E\	.	.	.	.	.	.	.	.	.	.	16e\LL	in	.	.	.	.	.
.	.	.	.	.	.	.	.	.	.	.	16g#\JJ	.	.	.	.	.	.
8D#X\	6	.	.	.	.	.	.	.	.	.	8f#\	vi-	.	.	.	.	.
8BB\J	.	.	.	.	.	.	.	.	.	.	16f#\LL	.	.	.	.	.	.
.	.	.	.	.	.	.	.	.	.	.	16a\JJ	-o-	.	.	.	.	.
=62	=62	=62	=62	=62	=62	=62	=62	=62	=62	=62	=62	=62	=62	=62	=62	=62	=62
!LO:TX:a:t=P:problem= mixed beam	!	!	!	!	!	!	!LO:N:vis=0	!	!LO:N:vis=0	!	!	!	!	!LO:N:vis=0	!	!	!
8E\L	.	.	.	.	.	2ryy	1r	.	1r	.	16g#\LL	-la-	.	1r	.	2ryy	2ryy
.	.	.	.	.	.	.	.	.	.	.	16a\JJ	.	.	.	.	.	.
8EE/	.	.	.	.	.	.	.	.	.	.	8b\	-ta	.	.	.	.	.
!	!	!	!	!	!	!	!	!	!	!	!LO:LB:g=original	!	!	!	!	!	!
8E\J	.	.	.	.	.	.	.	.	.	.	8r	.	.	.	.	.	.
8r	.	.	.	.	.	.	.	.	.	.	8B/	Ma-	.	.	.	.	.
!LO:LB:g=original	!	!	!	!	!	!	!	!	!	!	!	!	!	!	!	!	!
=63	=63	=63	=63	=63	=63	=63	=63	=63	=63	=63	=63	=63	=63	=63	=63	=63	=63
!LO:TX:a:t=P:problem= mixed beam	!	!	!	!	!	!	!	!	!	!	!	!	!	!	!	!	!
8EE/L	.	.	.	2r	.	2ryy	.	.	.	.	8e\	-ter	.	.	.	2ryy	2ryy
8E\	.	.	.	.	.	.	.	.	.	.	16e\LL	in	.	.	.	.	.
.	.	.	.	.	.	.	.	.	.	.	16g#\JJ	.	.	.	.	.	.
8D#X\	6	.	.	.	.	.	.	.	.	.	8f#\	te-	.	.	.	.	.
8BB\J	.	.	.	.	.	.	.	.	.	.	16f#\LL	-me-	.	.	.	.	.
.	.	.	.	.	.	.	.	.	.	.	16a\JJ	.	.	.	.	.	.
=64	=64	=64	=64	=64	=64	=64	=64	=64	=64	=64	=64	=64	=64	=64	=64	=64	=64
!LO:TX:a:t=P:problem= mixed beam	!	!	!	!	!	!	!	!	!	!	!	!	!	!	!	!	!
8E\L	.	.	.	4r	.	2ryy	2r	.	2r	.	16g#\LL	-ra-	.	2r	.	2ryy	2ryy
.	.	.	.	.	.	.	.	.	.	.	16a\JJ	.	.	.	.	.	.
8EE/	.	.	.	.	.	.	.	.	.	.	8b\	-ta	.	.	.	.	.
8E\J	.	.	.	16r	.	.	.	.	.	.	4r	.	.	.	.	.	.
.	.	.	.	16b/	.	.	.	.	.	.	.	.	.	.	.	.	.
8r	.	.	.	32a/LLL	.	.	.	.	.	.	.	.	.	.	.	.	.
.	.	.	.	32g#/	.	.	.	.	.	.	.	.	.	.	.	.	.
.	.	.	.	32f#/	.	.	.	.	.	.	.	.	.	.	.	.	.
.	.	.	.	32e/JJJ	.	.	.	.	.	.	.	.	.	.	.	.	.
!	!	!LO:LB:g=original	!	!	!	!	!	!	!	!	!	!	!	!	!	!	!
=65	=65	=65	=65	=65	=65	=65	=65	=65	=65	=65	=65	=65	=65	=65	=65	=65	=65
!LO:TX:b:t=Tutti	!	!	!	!	!	!	!	!	!	!	!LO:TX:a:t=T.	!	!	!LO:TX:a:t=T	!	!	!
*tremolo	*	*tremolo	*	*	*	*	*	*	*	*	*	*	*	*	*	*	*
8E\L	6 4	16a/LL	.	(16cc#\LL	.	2ryy	4E\	o-	4A\	o-	4e\	O-	.	4cc#\	O-	2ryy	2ryy
.	.	16a/	.	16a\JJ)	.	.	.	.	.	.	.	.	.	.	.	.	.
8E\	.	16a/	.	16r	.	.	.	.	.	.	.	.	.	.	.	.	.
.	.	16a/	.	16ee\	.	.	.	.	.	.	.	.	.	.	.	.	.
8E\	.	16a/	.	(16ee\LL	.	.	4E\	-ra	4A\	-ra	4e\	-ra	.	4cc#\	-ra	.	.
.	.	16a/	.	16cc#\)	.	.	.	.	.	.	.	.	.	.	.	.	.
8E\J	.	16a/	.	(16cc#\	.	.	.	.	.	.	.	.	.	.	.	.	.
.	.	16a/JJ	.	16a\JJ)	.	.	.	.	.	.	.	.	.	.	.	.	.
=66	=66	=66	=66	=66	=66	=66	=66	=66	=66	=66	=66	=66	=66	=66	=66	=66	=66
*	*	*	*	*	*	*	*	*ij	*	*ij	*	*ij	*	*	*ij	*	*
8E\L	5 3	16g#/LL	.	(16b/LL	.	2ryy	4E\	o-	4G#/	o-	4e\	O-	.	4b\	O-	2ryy	2ryy
.	.	16g#/	.	16g#/JJ)	.	.	.	.	.	.	.	.	.	.	.	.	.
8E\	.	16g#/	.	16r	.	.	.	.	.	.	.	.	.	.	.	.	.
.	.	16g#/	.	16ee\	.	.	.	.	.	.	.	.	.	.	.	.	.
8E\	.	16g#/	.	(16ee\LL	.	.	8E\	-ra	8G#/	-ra	8e\	-ra	.	8b\	-ra	.	.
*	*	*	*	*	*	*	*	*Xij	*	*Xij	*	*Xij	*	*	*Xij	*	*
.	.	16g#/	.	16b\)	.	.	.	.	.	.	.	.	.	.	.	.	.
8E\J	.	16g#/	.	(16b\	.	.	8E\	pro	8G#/	pro	8g#\	pro	.	8b\	pro	.	.
.	.	16g#/JJ	.	16g#\JJ)	.	.	.	.	.	.	.	.	.	.	.	.	.
*Xtremolo	*	*Xtremolo	*	*	*	*	*	*	*	*	*	*	*	*	*	*	*
=67	=67	=67	=67	=67	=67	=67	=67	=67	=67	=67	=67	=67	=67	=67	=67	=67	=67
8F#\L	3	(32f#/LLL	.	(32a/LLL	.	2ryy	(4D#X\	no-	2c#\	no-	4f#\	no-	.	(4a\	no-	2ryy	2ryy
.	.	32e/	.	32g#/	.	.	.	.	.	.	.	.	.	.	.	.	.
.	.	32f#/	.	32a/	.	.	.	.	.	.	.	.	.	.	.	.	.
.	.	32g#/JJJ)	.	32b/JJJ)	.	.	.	.	.	.	.	.	.	.	.	.	.
!	!	!	!	!LO:TX:a:t=P:problem= mixed beam	!	!	!	!	!	!	!	!	!	!	!	!	!
8D#X\	.	16f#/LL	.	16a/LL	.	.	.	.	.	.	.	.	.	.	.	.	.
.	.	16a/JJ	.	16ff#\JJ	.	.	.	.	.	.	.	.	.	.	.	.	.
!	!	!	!	!LO:LB:g=original	!	!	!	!	!	!	!	!	!	!	!	!	!
8E\	3	(32e/LLL	.	32g#/LLL	.	.	4E\)	.	.	.	4e\	.	.	4g#\)	.	.	.
.	.	32d#X/	.	(32f#/	.	.	.	.	.	.	.	.	.	.	.	.	.
.	.	32e/)	.	32g#/	.	.	.	.	.	.	.	.	.	.	.	.	.
.	.	32f#/JJJ	.	32a/JJJ)	.	.	.	.	.	.	.	.	.	.	.	.	.
!	!	!	!	!LO:TX:a:t=P:problem= mixed beam	!	!	!	!	!	!	!	!	!	!	!	!	!
8AA#X\J	.	16e/LL	.	16g#/LL	.	.	.	.	.	.	.	.	.	.	.	.	.
.	.	16g#/JJ	.	16ee\JJ	.	.	.	.	.	.	.	.	.	.	.	.	.
=68	=68	=68	=68	=68	=68	=68	=68	=68	=68	=68	=68	=68	=68	=68	=68	=68	=68
!LO:TX:a:t=P:problem= mixed beam	!	!	!	!	!	!	!	!	!	!	!	!	!	!	!	!	!
8BB/L	#	8e/L	.	8g#/L	.	2ryy	4BB/	-bis	4B\	-bis	4d#X\	-bis	.	4f#/	-bis	2ryy	2ryy
8B\	.	8d#X/	.	8f#/	.	.	.	.	.	.	.	.	.	.	.	.	.
8BB/J	.	8d#/J	.	8f#/J	.	.	4r	.	4r	.	4r	.	.	4r	.	.	.
8r	.	8r	.	8r	.	.	.	.	.	.	.	.	.	.	.	.	.
=69	=69	=69	=69	=69	=69	=69	=69	=69	=69	=69	=69	=69	=69	=69	=69	=69	=69
!	!	!	!	!	!	!	!LO:TX:a:t=1	!	!	!	!	!	!	!	!	!	!
2r	.	8r	.	4dd#X\	.	2ryy	2r	.	2r	.	4r	.	.	4dd#X\	Ma-	2ryy	2ryy
.	.	8B/L	.	.	.	.	.	.	.	.	.	.	.	.	.	.	.
!	!	!	!	!LO:TX:a:t=P:problem= mixed beam	!	!	!	!	!	!	!	!	!	!	!	!	!
.	.	8e/	.	16ee\LL	.	.	.	.	.	.	8r	.	.	8ee\	-ter	.	.
.	.	.	.	16gg#\	.	.	.	.	.	.	.	.	.	.	.	.	.
.	.	8g#/J	.	16bb\	.	.	.	.	.	.	8g#\	a-	.	8b\	a-	.	.
.	.	.	.	16b/JJ	.	.	.	.	.	.	.	.	.	.	.	.	.
=70	=70	=70	=70	=70	=70	=70	=70	=70	=70	=70	=70	=70	=70	=70	=70	=70	=70
8r	.	4f#/	.	4a/	.	2ryy	8r	.	8r	.	8.f#\	-ma-	.	8.a\	-ma-	2ryy	2ryy
*	*	*	*	*	*	*	*	*ij	*	*	*	*	*	*	*	*	*
8BB/	#	.	.	.	.	.	8BB/	o-	8B\	o-	.	.	.	.	.	.	.
.	.	.	.	.	.	.	.	.	.	.	16f#\	-bi-	.	16a\	-bi-	.	.
4E\	.	4e/	.	4g#/	.	.	4E\	-ra	4B\	-ra	4e\	-lis	.	4g#\	-lis	.	.
*	*	*	*	*	*	*	*	*Xij	*	*	*	*	*	*	*	*	*
!	!	!	!	!	!	!	!	!	!	!	!LO:LB:g=original	!	!	!LO:LB:g=original	!	!	!
=71	=71	=71	=71	=71	=71	=71	=71	=71	=71	=71	=71	=71	=71	=71	=71	=71	=71
!	!	!	!	!	!	!	!LO:TX:a:t=1	!	!	!	!	!	!	!	!	!	!
2r	.	8r	.	4dd#X\	.	2ryy	2r	.	2r	.	4r	.	.	8dd#X\	Ma-	2ryy	2ryy
.	.	8B/L	.	.	.	.	.	.	.	.	.	.	.	8dd#\	-ter	.	.
!	!	!	!	!LO:TX:a:t=P:problem= mixed beam	!	!	!	!	!	!	!	!	!	!	!	!	!
.	.	8e/	.	16ee\LL	.	.	.	.	.	.	8g#\	a-	.	8ee\	a-	.	.
.	.	.	.	16gg#\	.	.	.	.	.	.	.	.	.	.	.	.	.
.	.	8g#/J	.	16bb\	.	.	.	.	.	.	8g#\	-dmi-	.	8b\	-dmi-	.	.
.	.	.	.	16b/JJ	.	.	.	.	.	.	.	.	.	.	.	.	.
=72	=72	=72	=72	=72	=72	=72	=72	=72	=72	=72	=72	=72	=72	=72	=72	=72	=72
8r	.	4f#/	.	4a/	.	2ryy	8r	.	8r	.	8.f#\	-ra-	.	8.a\	-ra-	2ryy	2ryy
*	*	*	*	*	*	*	*	*ij	*	*ij	*	*	*	*	*	*	*
8BB/	#	.	.	.	.	.	8BB/	o-	8B\	o-	.	.	.	.	.	.	.
.	.	.	.	.	.	.	.	.	.	.	16f#\	-bi-	.	16a\	-bi-	.	.
4E\	.	4e/	.	4g#/	.	.	4E\	-ra	4B\	-ra	4e\	-lis	.	4g#\	-lis	.	.
*	*	*	*	*	*	*	*	*Xij	*	*	*	*	*	*	*	*	*
!	!	!	!	!	!	!	!	!	!LO:LB:g=original	!	!	!	!	!	!	!	!
=73	=73	=73	=73	=73	=73	=73	=73	=73	=73	=73	=73	=73	=73	=73	=73	=73	=73
!	!	!	!	!LO:TX:a:t=P:problem= mixed beam	!	!	!	!	!	!	!	!	!	!	!	!	!
4E\	7n	8r	.	8e/L	.	2ryy	16r	.	2e\	o-	2b\	O-	.	2ddn\	O-	2ryy	2ryy
.	.	.	.	.	.	.	16E\LL	o-	.	.	.	.	.	.	.	.	.
.	.	8b\L	.	8ddn\	.	.	16F#\	.	.	.	.	.	.	.	.	.	.
.	.	.	.	.	.	.	16G#\JJ	.	.	.	.	.	.	.	.	.	.
8r	.	8b\	.	8dd\	.	.	16e\LL	.	.	.	.	.	.	.	.	.	.
.	_	.	.	.	.	.	16B\	.	.	.	.	.	.	.	.	.	.
8E\	.	8b\J	.	8dd\J	.	.	16G#\	.	.	.	.	.	.	.	.	.	.
.	x	.	.	.	.	.	16E\JJ	.	.	.	.	.	.	.	.	.	.
!	!	!	!	!	!	!	!LO:LB:g=original	!	!	!	!	!	!	!	!	!	!
=74	=74	=74	=74	=74	=74	=74	=74	=74	=74	=74	=74	=74	=74	=74	=74	=74	=74
4A\	.	8a\L	.	8cc#\L	.	2ryy	4A\	-ra	4e\	-ra	4a\	-ra	.	4cc#\	-ra	2ryy	2ryy
.	.	16a\L	.	16a\L	.	.	.	.	.	.	.	.	.	.	.	.	.
.	.	16g#\JJ	.	16b\JJ	.	.	.	.	.	.	.	.	.	.	.	.	.
4r	.	16a\LL	.	16cc#\LL	.	.	4r	.	4r	.	4r	.	.	4r	.	.	.
.	.	16b\	.	16dd\	.	.	.	.	.	.	.	.	.	.	.	.	.
.	.	16cc#\	.	16ee\	.	.	.	.	.	.	.	.	.	.	.	.	.
.	.	16dd\JJ	.	16ff#\JJ	.	.	.	.	.	.	.	.	.	.	.	.	.
!LO:LB:g=original	!	!LO:LB:g=original	!	!	!	!	!	!	!	!	!	!	!	!	!	!	!
=75	=75	=75	=75	=75	=75	=75	=75	=75	=75	=75	=75	=75	=75	=75	=75	=75	=75
*	*	*tremolo	*	*tremolo	*	*	*	*	*	*	*	*	*	*	*	*	*
*	*	*	*	*tremolo	*	*	*	*	*	*	*	*	*	*	*	*	*
4AA/	7n	8ee\L	.	8ggn\L	.	2ryy	16r	.	2e\	o-	2b\	O-	.	2ggn\	O-	2ryy	2ryy
*	*	*	*	*	*	*	*	*ij	*	*	*	*	*	*	*	*	*
.	.	.	.	.	.	.	16AA/LL	o-	.	.	.	.	.	.	.	.	.
.	.	8ee\	.	8ggn\	.	.	16C#/	.	.	.	.	.	.	.	.	.	.
.	.	.	.	.	.	.	16E/JJ	.	.	.	.	.	.	.	.	.	.
8r	.	8ee\	.	8ggn\	.	.	16A\LL	.	.	.	.	.	.	.	.	.	.
.	_	.	.	.	.	.	16E\	.	.	.	.	.	.	.	.	.	.
8AA/	.	8ee\J	.	8ggn\J	.	.	16C#\	.	.	.	.	.	.	.	.	.	.
.	x	.	.	.	.	.	16AA\JJ	.	.	.	.	.	.	.	.	.	.
*	*	*	*	*Xtremolo	*	*	*	*	*	*	*	*	*	*	*	*	*
*	*	*Xtremolo	*	*Xtremolo	*	*	*	*	*	*	*	*	*	*	*	*	*
!	!	!	!	!LO:LB:g=original	!	!	!	!	!	!	!	!	!	!	!	!	!
=76	=76	=76	=76	=76	=76	=76	=76	=76	=76	=76	=76	=76	=76	=76	=76	=76	=76
4D\	5	8a\L	.	8ff#\L	.	2ryy	4D\	-ra	4d\	-ra	8a\	-ra	.	8ff#\	-ra	2ryy	2ryy
*	*	*	*	*	*	*	*	*Xij	*	*Xij	*	*	*	*	*ij	*	*
.	.	16dd\L	.	16ff#\L	.	.	.	.	.	.	16dd\LL	pro	.	16ff#\LL	O-	.	.
.	.	16cc#\JJ	.	16ee\JJ	.	.	.	.	.	.	16cc#\JJ	.	.	16ee\JJ	.	.	.
8r	.	8b\L	.	8dd\L	.	.	8r	.	8r	.	8b\	no-	.	8dd\	-ra	.	.
*	*	*	*	*	*	*	*	*	*	*	*	*	*	*	*Xij	*	*
8D#X\	.	8a\J	.	8cc#\J	.	.	8D#X\	pro	8f#\	pro	8a\	.	.	8cc#\	pro	.	.
=77	=77	=77	=77	=77	=77	=77	=77	=77	=77	=77	=77	=77	=77	=77	=77	=77	=77
4E\	6 4	4g#/	.	4b\	.	2ryy	8E\	no-	8e\	no-	8a\	.	.	8cc#\	no-	2ryy	2ryy
.	5 3	.	.	.	.	.	8E\	-bis	8e\	-bis	8g#\	-bis	.	8b\	-bis	.	.
16E`\LL	.	4r	.	4r	.	.	4r	.	4r	.	4r	.	.	8r	.	.	.
16D`\	.	.	.	.	.	.	.	.	.	.	.	.	.	.	.	.	.
!	!	!	!	!	!	!	!	!	!	!	!	!	!	!LO:TX:a:t=Solo	!	!	!
16C#`\	.	.	.	.	.	.	.	.	.	.	.	.	.	8e/	Ma-	.	.
16BB`\JJ	.	.	.	.	.	.	.	.	.	.	.	.	.	.	.	.	.
=78	=78	=78	=78	=78	=78	=78	=78	=78	=78	=78	=78	=78	=78	=78	=78	=78	=78
!LO:TX:a:t=P:problem= mixed beam	!	!	!	!LO:N:vis=0	!	!	!LO:N:vis=00	!	!	!	!LO:N:vis=00	!	!	!	!	!	!
!LO:TX:a:t=Solo	!	!LO:N:vis=00	!	!LO:TX:a:t=3	!	!	!LO:TX:a:t=4	!	!LO:N:vis=00	!	!LO:TX:a:t=4	!	!	!	!	!	!
8AA/L	.	0r	.	1r	.	2ryy	0r	.	0r	.	0r	.	.	8a\	-ter	2ryy	2ryy
*	*	*	*	*	*	*	*	*	*	*	*	*	*	*	*ij	*	*
8A\	.	.	.	.	.	.	.	.	.	.	.	.	.	16a\LL	Ma-	.	.
.	.	.	.	.	.	.	.	.	.	.	.	.	.	16cc#\JJ	.	.	.
8G#\	6	.	.	.	.	.	.	.	.	.	.	.	.	8b\	-ter	.	.
*	*	*	*	*	*	*	*	*	*	*	*	*	*	*	*Xij	*	*
!	!	!	!	!	!	!	!	!	!	!	!	!	!	!LO:LB:g=original	!	!	!
8E\J	.	.	.	.	.	.	.	.	.	.	.	.	.	16b\LL	a-	.	.
.	.	.	.	.	.	.	.	.	.	.	.	.	.	16dd\JJ	.	.	.
=79	=79	=79	=79	=79	=79	=79	=79	=79	=79	=79	=79	=79	=79	=79	=79	=79	=79
!LO:TX:a:t=P:problem= mixed beam	!	!	!	!	!	!	!	!	!	!	!	!	!	!	!	!	!
8AA/L	.	.	.	.	.	2ryy	.	.	.	.	.	.	.	16cc#\	-ma-	2ryy	2ryy
.	.	.	.	.	.	.	.	.	.	.	.	.	.	16dd\	-bi-	.	.
8A\	.	.	.	.	.	.	.	.	.	.	.	.	.	8ee\	-lis	.	.
8AA/J	.	.	.	.	.	.	.	.	.	.	.	.	.	8r	.	.	.
!	!	!	!	!	!	!	!	!	!	!	!	!	!	!LO:TX:a:t=P:problem=belka między 8 przechodzi przez kreskę taktową	!	!	!
8r	.	.	.	.	.	.	.	.	.	.	.	.	.	8e/	Ma-	.	.
=80	=80	=80	=80	=80	=80	=80	=80	=80	=80	=80	=80	=80	=80	=80	=80	=80	=80
!LO:TX:a:t=P:problem= mixed beam	!	!	!	!	!	!	!	!	!	!	!	!	!	!	!	!	!
8AA/L	.	.	.	2r	.	2ryy	.	.	.	.	.	.	.	8a/	.	2ryy	2ryy
8A\	.	.	.	.	.	.	.	.	.	.	.	.	.	16a\LL	-ter	.	.
.	.	.	.	.	.	.	.	.	.	.	.	.	.	16cc#\JJ	.	.	.
8G#\	6	.	.	.	.	.	.	.	.	.	.	.	.	8b\	ad-	.	.
8E\J	.	.	.	.	.	.	.	.	.	.	.	.	.	16b\LL	-mi-	.	.
.	.	.	.	.	.	.	.	.	.	.	.	.	.	16dd\JJ	.	.	.
=81	=81	=81	=81	=81	=81	=81	=81	=81	=81	=81	=81	=81	=81	=81	=81	=81	=81
!LO:TX:a:t=P:problem= mixed beam	!	!	!	!	!	!	!	!	!	!	!	!	!	!	!	!	!
8AA/L	.	.	.	4r	.	2ryy	.	.	.	.	.	.	.	16cc#\	-ra-	2ryy	2ryy
.	.	.	.	.	.	.	.	.	.	.	.	.	.	16dd\	-bi-	.	.
8A\	.	.	.	.	.	.	.	.	.	.	.	.	.	8ee\	-lis	.	.
8AA/J	.	.	.	16r	.	.	.	.	.	.	.	.	.	4r	.	.	.
.	.	.	.	16ee\	.	.	.	.	.	.	.	.	.	.	.	.	.
8r	.	.	.	32dd\LLL	.	.	.	.	.	.	.	.	.	.	.	.	.
.	.	.	.	32cc#\	.	.	.	.	.	.	.	.	.	.	.	.	.
.	.	.	.	32b\	.	.	.	.	.	.	.	.	.	.	.	.	.
.	.	.	.	32a\JJJ	.	.	.	.	.	.	.	.	.	.	.	.	.
=82	=82	=82	=82	=82	=82	=82	=82	=82	=82	=82	=82	=82	=82	=82	=82	=82	=82
!LO:TX:b:t=Tutti	!	!	!	!	!	!	!	!	!	!	!	!	!	!	!	!	!
*tremolo	*	*tremolo	*	*	*	*	*	*	*	*	*	*	*	*	*	*	*
8A\L	6 4	16dd\LL	.	(16ff#\LL	.	2ryy	4A\	o-	4d\	O-	4a\	O-	.	4ff#\	O-	2ryy	2ryy
.	.	16dd\	.	16dd\JJ)	.	.	.	.	.	.	.	.	.	.	.	.	.
8A\	.	16dd\	.	16r	.	.	.	.	.	.	.	.	.	.	.	.	.
.	.	16dd\	.	16aa\	.	.	.	.	.	.	.	.	.	.	.	.	.
8A\	.	16dd\	.	(16aa\LL	.	.	4A\	-ra	4d\	-ra	4a\	-ra	.	4ff#\	-ra	.	.
.	.	16dd\	.	16ff#\)	.	.	.	.	.	.	.	.	.	.	.	.	.
8A\J	.	16dd\	.	(16ff#\	.	.	.	.	.	.	.	.	.	.	.	.	.
.	.	16dd\JJ	.	16dd\JJ)	.	.	.	.	.	.	.	.	.	.	.	.	.
!	!	!	!	!	!	!	!	!	!	!	!LO:LB:g=original	!	!	!	!	!	!
=83	=83	=83	=83	=83	=83	=83	=83	=83	=83	=83	=83	=83	=83	=83	=83	=83	=83
*	*	*	*	*	*	*	*	*ij	*	*ij	*	*	*	*	*ij	*	*
8A\L	5 3	16cc#\LL	.	(16ee\LL	.	2ryy	4A\	o-	4c#\	O-	4a\	o-	.	4ee\	O-	2ryy	2ryy
.	.	16cc#\	.	16cc#\JJ)	.	.	.	.	.	.	.	.	.	.	.	.	.
8A\	.	16cc#\	.	16r	.	.	.	.	.	.	.	.	.	.	.	.	.
.	.	16cc#\	.	16aa\	.	.	.	.	.	.	.	.	.	.	.	.	.
8A\	.	16cc#\	.	(16aa\LL	.	.	8A\	-ra	8c#\	-ra	8a\	-ra	.	8ee\	-ra	.	.
*	*	*	*	*	*	*	*	*Xij	*	*Xij	*	*	*	*	*Xij	*	*
.	.	16cc#\	.	16ee\)	.	.	.	.	.	.	.	.	.	.	.	.	.
8A\J	.	16cc#\	.	(16ee\	.	.	8A\	pro	8c#\	pro	8a\	pro	.	8ee\	pro	.	.
.	.	16cc#\JJ	.	16cc#\JJ)	.	.	.	.	.	.	.	.	.	.	.	.	.
*Xtremolo	*	*Xtremolo	*	*	*	*	*	*	*	*	*	*	*	*	*	*	*
=84	=84	=84	=84	=84	=84	=84	=84	=84	=84	=84	=84	=84	=84	=84	=84	=84	=84
8B\L	7	(32b\LLL	.	(32dd\LLL	.	2ryy	4G#\	no-	2e\	no-	(4b\	no-	.	(4dd\	no-	2ryy	2ryy
.	.	32a\	.	32cc#\	.	.	.	.	.	.	.	.	.	.	.	.	.
.	.	32b\	.	32dd\)	.	.	.	.	.	.	.	.	.	.	.	.	.
.	.	32cc#\JJJ)	.	32ee\JJJ	.	.	.	.	.	.	.	.	.	.	.	.	.
8G#\	.	16b\LL	.	16dd\LL	.	.	.	.	.	.	.	.	.	.	.	.	.
.	.	16dd\JJ	.	16bb\JJ	.	.	.	.	.	.	.	.	.	.	.	.	.
8A\	9	32a/LLL	.	(32cc#\LLL	.	.	4A\	.	.	.	4a\)	.	.	4cc#\)	.	.	.
.	.	(32g#/	.	32b\	.	.	.	.	.	.	.	.	.	.	.	.	.
.	.	32a/)	.	32cc#\	.	.	.	.	.	.	.	.	.	.	.	.	.
.	.	32b/JJJ	.	32dd\JJJ)	.	.	.	.	.	.	.	.	.	.	.	.	.
8D#X\J	7	16a/LL	.	16cc#\LL	.	.	.	.	.	.	.	.	.	.	.	.	.
.	.	16cc#/JJ	.	16aa\JJ	.	.	.	.	.	.	.	.	.	.	.	.	.
!	!	!	!	!LO:LB:g=original	!	!	!	!	!	!	!	!	!	!	!	!	!
=85	=85	=85	=85	=85	=85	=85	=85	=85	=85	=85	=85	=85	=85	=85	=85	=85	=85
!LO:TX:a:t=P:problem= mixed beam	!	!	!	!	!	!	!	!	!	!	!	!	!	!	!	!	!
8E\L	.	8a/L	.	8cc#\L	.	2ryy	4E\	-bis	4e\	-bis	4g#\	-bis	.	4b\	-bis	2ryy	2ryy
8EE/	.	8g#/	.	8b\	.	.	.	.	.	.	.	.	.	.	.	.	.
8E\J	.	8g#/J	.	8b\J	.	.	4r	.	4r	.	4r	.	.	4r	.	.	.
8r	.	8r	.	8r	.	.	.	.	.	.	.	.	.	.	.	.	.
!	!	!	!	!	!	!	!	!	!LO:LB:g=original	!	!	!	!	!	!	!	!
=86	=86	=86	=86	=86	=86	=86	=86	=86	=86	=86	=86	=86	=86	=86	=86	=86	=86
!LO:TX:a:t=1	!	!	!	!	!	!	!LO:TX:a:t=P:problem= t. 86-87 ujęte w repetycję	!	!	!	!	!	!	!	!	!	!
2r	.	8r	.	4gg#\	.	2ryy	2r	.	4r	.	4r	.	.	8gg#\	Ma-	2ryy	2ryy
.	.	8e/L	.	.	.	.	.	.	.	.	.	.	.	8gg#\	-ter	.	.
!	!	!	!	!	!	!	!	!	!	!	!	!	!	!LO:LB:g=original	!	!	!
.	.	8a/	.	16aa\LL	.	.	.	.	8r	.	8cc#\	Cre-	.	8aa\	Cre-	.	.
.	.	.	.	16ccc#\	.	.	.	.	.	.	.	.	.	.	.	.	.
*	*	*	*	*	*	*	*	*	*	*ij	*	*	*	*	*	*	*
.	.	8cc#/J	.	16eee\	.	.	.	.	8e\	pro	8cc#\	-a-	.	8ee\	-a-	.	.
.	.	.	.	16ee\JJ	.	.	.	.	.	.	.	.	.	.	.	.	.
!LO:PB:g=original	!	!	!	!	!	!	!	!	!	!	!	!	!	!	!	!	!
=87	=87	=87	=87	=87	=87	=87	=87	=87	=87	=87	=87	=87	=87	=87	=87	=87	=87
8r	.	4b/	.	4dd\	.	2ryy	8r	.	4e\	no-	4b\	-to-	.	4dd\	-to-	2ryy	2ryy
8E\	7	.	.	.	.	.	8E\	o-	.	.	.	.	.	.	.	.	.
4A\	.	4a/	.	4cc#\	.	.	4A\	-ra	4e\	-bis	4a\	-ris	.	4cc#\	-ris	.	.
!	!	!LO:LB:g=original	!	!	!	!	!	!	!	!	!	!	!	!	!	!	!
=88	=88	=88	=88	=88	=88	=88	=88	=88	=88	=88	=88	=88	=88	=88	=88	=88	=88
!LO:TX:a:t=1	!	!	!	!	!	!	!LO:TX:a:t=P:problem= t. 88-89 powtórzone repetycją	!	!	!	!	!	!	!	!	!	!
2r	.	8r	.	8b\L	.	2ryy	2r	.	4r	.	4r	.	.	8gg#\	Ma-	2ryy	2ryy
.	.	8e/L	.	8gg#\J	.	.	.	.	.	.	.	.	.	8gg#\	-ter	.	.
.	.	8a/	.	16aa\LL	.	.	.	.	8r	.	8cc#\	Sal-	.	8aa\	Sal-	.	.
.	.	.	.	16ccc#\	.	.	.	.	.	.	.	.	.	.	.	.	.
.	.	8cc#/J	.	16eee\	.	.	.	.	8e\	pro	8cc#\	-va-	.	8ee\	-va-	.	.
.	.	.	.	16ee\JJ	.	.	.	.	.	.	.	.	.	.	.	.	.
=89	=89	=89	=89	=89	=89	=89	=89	=89	=89	=89	=89	=89	=89	=89	=89	=89	=89
!	!	!LO:TX:a:t=P:problem= 4\right&colon; global	!	!	!	!	!	!	!	!	!	!	!	!	!	!	!
8r	.	4b\	.	4dd\	.	2ryy	8r	.	4e\	no-	4b\	-to-	.	4dd\	-to-	2ryy	2ryy
8E\	7	.	.	.	.	.	8E\	o-	.	.	.	.	.	.	.	.	.
4A\	.	4a\	.	4cc#\	.	.	4A\	-ra	4e\	-bis	4a\	-ris	.	4cc#\	-ris	.	.
!	!	!	!	!	!	!	!LO:LB:g=original	!	!	!	!	!	!	!	!	!	!
=90	=90	=90	=90	=90	=90	=90	=90	=90	=90	=90	=90	=90	=90	=90	=90	=90	=90
!	!	!	!	!	!	!	!LO:TX:a:t=2	!	!	!	!	!	!	!	!	!	!
!	!	!	!	!	!	!	!LO:N:vis=0	!	!	!	!	!	!	!	!	!	!
8r	.	8r	.	8r	.	2ryy	1r	.	2r	.	2r	.	.	2ff#\	O-	2ryy	2ryy
8D\L	10	8a/L	.	8ff#\L	.	.	.	.	.	.	.	.	.	.	.	.	.
8D\	.	8a/	.	8ff#\	.	.	.	.	.	.	.	.	.	.	.	.	.
8D\J	.	8a/J	.	8ff#\J	.	.	.	.	.	.	.	.	.	.	.	.	.
=91	=91	=91	=91	=91	=91	=91	=91	=91	=91	=91	=91	=91	=91	=91	=91	=91	=91
8r	.	8r	.	8r	.	2ryy	.	.	4r	.	2b\	O-	.	2gg#X\	.	2ryy	2ryy
8BB/L	6|	8dd\L	.	8gg#\L	.	.	.	.	.	.	.	.	.	.	.	.	.
8BB/	.	8dd\	.	8gg#\	.	.	.	.	4d\	pro	.	.	.	.	.	.	.
8BB/J	.	8dd\J	.	8gg#\J	.	.	.	.	.	.	.	.	.	.	.	.	.
=92	=92	=92	=92	=92	=92	=92	=92	=92	=92	=92	=92	=92	=92	=92	=92	=92	=92
!LO:TX:a:t=P:problem= mixed beam	!	!	!	!	!	!	!	!	!	!	!	!	!	!	!	!	!
8AA/L	.	4cc#\	.	4aa\	.	2ryy	8r	.	8e\	.	8cc#\	-ra	.	8aa\	-ra	2ryy	2ryy
*	*	*	*	*	*	*	*	*	*	*	*	*ij	*	*	*ij	*	*
8A\	.	.	.	.	.	.	8A\	o-	8e\	no-	8a\	O-	.	8cc#\	O-	.	.
8c#\	6	4r	.	4r	.	.	8c#\	-ra	8e\	-bis	8a\	-ra	.	8dd\	-ra	.	.
*	*	*	*	*	*	*	*	*	*	*Xij	*	*Xij	*	*	*Xij	*	*
8A\J	.	.	.	.	.	.	8A\	pro	8e\	pro	8a\	pro	.	8cc#\	pro	.	.
!	!	!	!	!	!	!	!	!	!	!	!LO:LB:g=original	!	!	!	!	!	!
=93	=93	=93	=93	=93	=93	=93	=93	=93	=93	=93	=93	=93	=93	=93	=93	=93	=93
8e\L	4	2r	.	2r	.	2ryy	8e\	no-	8e\	no-	8a\	no-	.	8cc#\	no-	2ryy	2ryy
8E\J	3	.	.	.	.	.	8E\	-bis	8e\	-bis	8g#\	-bis	.	8b\	-bis	.	.
4r	.	.	.	.	.	.	4r	.	4r	.	4r	.	.	4r	.	.	.
=94	=94	=94	=94	=94	=94	=94	=94	=94	=94	=94	=94	=94	=94	=94	=94	=94	=94
8r	.	(16dd\LL	.	4.gg#\	.	2ryy	8r	.	2e\	O-	2b\	O-	.	2dd\	O-	2ryy	2ryy
.	.	16ee\	.	.	.	.	.	.	.	.	.	.	.	.	.	.	.
8E\L	7_	16dd\)	.	.	.	.	8E\L	o-	.	.	.	.	.	.	.	.	.
.	.	16ee\JJ	.	.	.	.	.	.	.	.	.	.	.	.	.	.	.
8G#\	.	(16dd\LL	.	.	.	.	8G#\	.	.	.	.	.	.	.	.	.	.
.	x	16ee\	.	.	.	.	.	.	.	.	.	.	.	.	.	.	.
8E\J	.	16dd\)	.	8gg#\	.	.	8E\J	.	.	.	.	.	.	.	.	.	.
.	.	16ee\JJ	.	.	.	.	.	.	.	.	.	.	.	.	.	.	.
!	!	!	!	!	!	!	!	!	!LO:LB:g=original	!	!	!	!	!	!	!	!
=95	=95	=95	=95	=95	=95	=95	=95	=95	=95	=95	=95	=95	=95	=95	=95	=95	=95
4A\	.	4cc#\	.	(16aa\LL	.	2ryy	4A\	-ra	4e\	-ra	4a\	-ra	.	4cc#\	-ra	2ryy	2ryy
.	.	.	.	16ccc#\	.	.	.	.	.	.	.	.	.	.	.	.	.
.	.	.	.	16aa\	.	.	.	.	.	.	.	.	.	.	.	.	.
.	.	.	.	16ccc#\JJ)	.	.	.	.	.	.	.	.	.	.	.	.	.
!	!	!	!	!LO:LB:g=original	!	!	!	!	!	!	!	!	!	!	!	!	!
4r	.	4r	.	(16aa\LL	.	.	4r	.	4r	.	4r	.	.	4r	.	.	.
.	.	.	.	16ccc#\	.	.	.	.	.	.	.	.	.	.	.	.	.
.	.	.	.	16aa\	.	.	.	.	.	.	.	.	.	.	.	.	.
.	.	.	.	16ccc#\JJ)	.	.	.	.	.	.	.	.	.	.	.	.	.
=96	=96	=96	=96	=96	=96	=96	=96	=96	=96	=96	=96	=96	=96	=96	=96	=96	=96
!	!	!	!	!	!	!	!	!	!	!	!	!	!	!LO:TX:b:t=Volti	!	!	!
*	*	*	*	*	*	*	*	*ij	*	*ij	*	*ij	*	*	*	*	*
8r	.	(16dd\LL	.	4.gg#\	.	2ryy	8r	.	2e\	O-	2b\	O-	.	2dd\	O-	2ryy	2ryy
.	.	16ee\	.	.	.	.	.	.	.	.	.	.	.	.	.	.	.
8E\L	7_	16dd\)	.	.	.	.	8E\L	o-	.	.	.	.	.	.	.	.	.
.	.	16ee\JJ	.	.	.	.	.	.	.	.	.	.	.	.	.	.	.
8G#\	.	(16dd\LL	.	.	.	.	8G#\	.	.	.	.	.	.	.	.	.	.
.	x	16ee\	.	.	.	.	.	.	.	.	.	.	.	.	.	.	.
8E\J	.	16dd\	.	8gg#\	.	.	8E\J	.	.	.	.	.	.	.	.	.	.
.	.	16ee\JJ)	.	.	.	.	.	.	.	.	.	.	.	.	.	.	.
!	!	!	!	!	!	!	!	!	!	!	!	!	!	!LO:PB:g=original	!	!	!
=97	=97	=97	=97	=97	=97	=97	=97	=97	=97	=97	=97	=97	=97	=97	=97	=97	=97
4A\	.	4cc#\	.	(16aa\LL	.	2ryy	4A\	-ra	4e\	-ra	4a\	-ra	.	4cc#\	-ra	2ryy	2ryy
*	*	*	*	*	*	*	*	*Xij	*	*	*	*Xij	*	*	*	*	*
.	.	.	.	16ccc#\	.	.	.	.	.	.	.	.	.	.	.	.	.
.	.	.	.	16aa\)	.	.	.	.	.	.	.	.	.	.	.	.	.
.	.	.	.	16ccc#\JJ	.	.	.	.	.	.	.	.	.	.	.	.	.
8r	.	4r	.	8aa\	.	.	4r	.	8r	.	8r	.	.	8r	.	.	.
8A\	.	.	.	8r	.	.	.	.	8e\	O-	8a\	o-	.	8cc#\	O-	.	.
!LO:LB:g=original	!	!LO:LB:g=original	!	!	!	!	!	!	!	!	!	!	!	!	!	!	!
=98	=98	=98	=98	=98	=98	=98	=98	=98	=98	=98	=98	=98	=98	=98	=98	=98	=98
!	!	!LO:TX:a:t=1	!	!	!	!	!	!	!	!	!	!	!	!	!	!	!
4D\	6 5	2r	.	2r	.	2ryy	8D\	o-	8f#\	-ra	8f#\	-ra	.	8dd\	-ra	2ryy	2ryy
*	*	*	*	*	*	*	*	*	*	*Xij	*Xtuplet	*	*	*Xtuplet	*	*	*
!	!	!	!	!	!	!	!	!	!	!	!LO:TX:a:t=P:problem=brak oznaczenia	!	!	!LO:TX:a:t=P:problem=brak oznaczenia trioli	!	!	!
.	.	.	.	.	.	.	16D\	-ra	8f#\	pro	24b\LL	pro	.	24ff#\LL	pro	.	.
.	.	.	.	.	.	.	.	.	.	.	24a\	.	.	24ee\	.	.	.
.	.	.	.	.	.	.	16D\	pro	.	.	.	.	.	.	.	.	.
.	.	.	.	.	.	.	.	.	.	.	24g#\JJ	.	.	24dd\JJ	.	.	.
!LO:TX:a:t=P:problem= mixed beam	!	!	!	!	!	!	!	!	!	!	!	!	!	!	!	!	!
8E\L	4	.	.	.	.	.	4E\	no-	4e\	no-	8a\L	no-	.	8cc#\L	no-	.	.
8EE/J	3	.	.	.	.	.	.	.	.	.	8g#\J	.	.	8b\J	.	.	.
=99	=99	=99	=99	=99	=99	=99	=99	=99	=99	=99	=99	=99	=99	=99	=99	=99	=99
!LO:TX:a:t=P:problem= mixed beam	!	!	!	!	!	!	!	!	!	!	!	!	!	!	!	!	!
8AA/L	.	4r	.	4r	.	2ryy	4AA/	-bis	4e\	-bis.	4a\	-bis.	.	4a\	-bis.	2ryy	2ryy
8A\	.	.	.	.	.	.	.	.	.	.	.	.	.	.	.	.	.
8AA/J	.	8r	.	8r	.	.	4r	.	4r	.	4r	.	.	4r	.	.	.
8r	.	32ee\LLL	.	32ee\LLL	.	.	.	.	.	.	.	.	.	.	.	.	.
.	.	32dd\	.	32dd\	.	.	.	.	.	.	.	.	.	.	.	.	.
.	.	32cc#\	.	32cc#\	.	.	.	.	.	.	.	.	.	.	.	.	.
.	.	32b\JJJ	.	32b\JJJ	.	.	.	.	.	.	.	.	.	.	.	.	.
=100	=100	=100	=100	=100	=100	=100	=100	=100	=100	=100	=100	=100	=100	=100	=100	=100	=100
!LO:TX:a:t=P:problem= mixed beam	!	!	!	!	!	!	!LO:N:vis=00	!	!LO:N:vis=00	!	!LO:N:vis=00	!	!	!LO:N:vis=00	!	!	!
!LO:TX:a:t=ʃ&colon;	!	!	!	!	!	!	!	!	!	!	!	!	!	!	!	!	!
8AA/L	.	8a`\L	.	8a`\L	.	2ryy	0r	.	0r	.	0r	.	.	0r	.	2ryy	2ryy
8A\	.	(16a\L	.	(16a\L	.	.	.	.	.	.	.	.	.	.	.	.	.
.	.	16cc#\JJ)	.	16cc#\JJ)	.	.	.	.	.	.	.	.	.	.	.	.	.
8G#\	6	8b`\L	.	8b`\L	.	.	.	.	.	.	.	.	.	.	.	.	.
8E\J	.	(16b\L	.	(16b\L	.	.	.	.	.	.	.	.	.	.	.	.	.
.	.	16dd\JJ)	.	16dd\JJ)	.	.	.	.	.	.	.	.	.	.	.	.	.
=101	=101	=101	=101	=101	=101	=101	=101	=101	=101	=101	=101	=101	=101	=101	=101	=101	=101
!LO:TX:a:t=P:problem= mixed beam	!	!	!	!	!	!	!	!	!	!	!	!	!	!	!	!	!
8AA/L	.	(16cc#\LL	.	(16cc#\LL	.	2ryy	.	.	.	.	.	.	.	.	.	2ryy	2ryy
.	.	16dd\J)	.	16dd\J)	.	.	.	.	.	.	.	.	.	.	.	.	.
8A\	.	8ee\J	.	8ee\J	.	.	.	.	.	.	.	.	.	.	.	.	.
8AA/J	.	8r	.	8r	.	.	.	.	.	.	.	.	.	.	.	.	.
8r	.	8e/	.	8e/	.	.	.	.	.	.	.	.	.	.	.	.	.
=102	=102	=102	=102	=102	=102	=102	=102	=102	=102	=102	=102	=102	=102	=102	=102	=102	=102
!LO:TX:a:t=P:problem= mixed beam	!	!	!	!	!	!	!	!	!	!	!	!	!	!	!	!	!
8AA/L	.	8a`\L	.	8a`/L	.	2ryy	.	.	.	.	.	.	.	.	.	2ryy	2ryy
8A\	.	(16a\L	.	(16a/L	.	.	.	.	.	.	.	.	.	.	.	.	.
.	.	16cc#\JJ)	.	16cc#/JJ)	.	.	.	.	.	.	.	.	.	.	.	.	.
8G#\	6	8b`\L	.	8b`/L	.	.	.	.	.	.	.	.	.	.	.	.	.
8E\J	.	(16b\L	.	(16b/L	.	.	.	.	.	.	.	.	.	.	.	.	.
.	.	16dd\JJ)	.	16dd/JJ)	.	.	.	.	.	.	.	.	.	.	.	.	.
=103	=103	=103	=103	=103	=103	=103	=103	=103	=103	=103	=103	=103	=103	=103	=103	=103	=103
!LO:TX:a:t=P:problem= mixed beam	!	!	!	!	!	!	!	!	!	!	!	!	!	!	!	!	!
8AA/L	.	(16cc#\LL	.	(16cc#\LL	.	2ryy	.	.	.	.	.	.	.	.	.	2ryy	2ryy
.	.	16dd\J)	.	16dd\J)	.	.	.	.	.	.	.	.	.	.	.	.	.
8A\	.	8ee\J	.	8ee\J	.	.	.	.	.	.	.	.	.	.	.	.	.
8AA/J	.	4r	.	16r	.	.	.	.	.	.	.	.	.	.	.	.	.
.	.	.	.	16ee\	.	.	.	.	.	.	.	.	.	.	.	.	.
8r	.	.	.	(32dd\LLL	.	.	.	.	.	.	.	.	.	.	.	.	.
.	.	.	.	32cc#\	.	.	.	.	.	.	.	.	.	.	.	.	.
.	.	.	.	32b\)	.	.	.	.	.	.	.	.	.	.	.	.	.
.	.	.	.	32a\JJJ	.	.	.	.	.	.	.	.	.	.	.	.	.
!	!	!	!	!LO:LB:g=original	!	!	!	!	!	!	!	!	!	!	!	!	!
=104	=104	=104	=104	=104	=104	=104	=104	=104	=104	=104	=104	=104	=104	=104	=104	=104	=104
!	!	!	!	!	!	!	!LO:N:vis=00	!	!LO:N:vis=00	!	!LO:N:vis=00	!	!	!LO:N:vis=00	!	!	!
*tremolo	*	*tremolo	*	*	*	*	*	*	*	*	*	*	*	*	*	*	*
8A\L	6 4	16dd\LL	.	(16ff#\LL	.	2ryy	0r	.	0r	.	0r	.	.	0r	.	2ryy	2ryy
.	.	16dd\	.	16dd\JJ)	.	.	.	.	.	.	.	.	.	.	.	.	.
8A\	.	16dd\	.	16r	.	.	.	.	.	.	.	.	.	.	.	.	.
.	.	16dd\	.	16aa\	.	.	.	.	.	.	.	.	.	.	.	.	.
8A\	.	16dd\	.	(16aa\LL	.	.	.	.	.	.	.	.	.	.	.	.	.
.	.	16dd\	.	16ff#\)	.	.	.	.	.	.	.	.	.	.	.	.	.
8A\J	.	16dd\	.	(16ff#\	.	.	.	.	.	.	.	.	.	.	.	.	.
.	.	16dd\JJ	.	16dd\JJ)	.	.	.	.	.	.	.	.	.	.	.	.	.
=105	=105	=105	=105	=105	=105	=105	=105	=105	=105	=105	=105	=105	=105	=105	=105	=105	=105
8A\L	5 3	16cc#\LL	.	(16ee\LL	.	2ryy	.	.	.	.	.	.	.	.	.	2ryy	2ryy
.	.	16cc#\	.	16dd\JJ)	.	.	.	.	.	.	.	.	.	.	.	.	.
8A\	.	16cc#\	.	16r	.	.	.	.	.	.	.	.	.	.	.	.	.
.	.	16cc#\	.	16aa\	.	.	.	.	.	.	.	.	.	.	.	.	.
8A\	.	16cc#\	.	(16aa\LL	.	.	.	.	.	.	.	.	.	.	.	.	.
.	.	16cc#\	.	16ee\)	.	.	.	.	.	.	.	.	.	.	.	.	.
8A\J	.	16cc#\	.	(16ee\	.	.	.	.	.	.	.	.	.	.	.	.	.
.	.	16cc#\JJ	.	16cc#\JJ)	.	.	.	.	.	.	.	.	.	.	.	.	.
*	*	*Xtremolo	*	*	*	*	*	*	*	*	*	*	*	*	*	*	*
*Xtremolo	*	*	*	*	*	*	*	*	*	*	*	*	*	*	*	*	*
*Xtremolo	*	*Xtremolo	*	*	*	*	*	*	*	*	*	*	*	*	*	*	*
=106	=106	=106	=106	=106	=106	=106	=106	=106	=106	=106	=106	=106	=106	=106	=106	=106	=106
8G#\	6 5	(32b\LLL	.	(32dd\LLL	.	2ryy	.	.	.	.	.	.	.	.	.	2ryy	2ryy
.	.	32a\	.	32cc#\	.	.	.	.	.	.	.	.	.	.	.	.	.
.	.	32b\)	.	32dd\)	.	.	.	.	.	.	.	.	.	.	.	.	.
.	.	32cc#\JJJ	.	32ee\JJJ	.	.	.	.	.	.	.	.	.	.	.	.	.
8r	.	16b\LL	.	16dd\LL	.	.	.	.	.	.	.	.	.	.	.	.	.
.	.	16dd\JJ	.	16bb\JJ	.	.	.	.	.	.	.	.	.	.	.	.	.
8A\	.	(32a\LLL	.	(32cc#\LLL	.	.	.	.	.	.	.	.	.	.	.	.	.
.	.	32g#\	.	32b\	.	.	.	.	.	.	.	.	.	.	.	.	.
.	.	32a\	.	32cc#\)	.	.	.	.	.	.	.	.	.	.	.	.	.
.	.	32b\JJJ)	.	32dd\JJJ	.	.	.	.	.	.	.	.	.	.	.	.	.
!	!	!LO:LB:g=original	!	!	!	!	!	!	!	!	!	!	!	!	!	!	!
8r	.	16a\LL	.	16cc#\LL	.	.	.	.	.	.	.	.	.	.	.	.	.
.	.	16cc#\JJ	.	16aa\JJ	.	.	.	.	.	.	.	.	.	.	.	.	.
=107	=107	=107	=107	=107	=107	=107	=107	=107	=107	=107	=107	=107	=107	=107	=107	=107	=107
8E\L	.	8a/L	.	8cc#\L	.	2ryy	.	.	.	.	.	.	.	.	.	2ryy	2ryy
8BB\J	4	8g#/	.	8b\J	.	.	.	.	.	.	.	.	.	.	.	.	.
8EE/	3	8g#/J	.	4r	.	.	.	.	.	.	.	.	.	.	.	.	.
8r	.	8r	.	.	.	.	.	.	.	.	.	.	.	.	.	.	.
!	!	!LO:TX:a:t=P:problem=wykreślone 9 taktów między t.107-108	!	!	!	!	!	!	!	!	!	!	!	!	!	!	!
=108	=108	=108	=108	=108	=108	=108	=108	=108	=108	=108	=108	=108	=108	=108	=108	=108	=108
!	!	!	!	!	!	!	!LO:N:vis=00	!	!LO:N:vis=00	!	!LO:N:vis=00	!	!	!LO:N:vis=00	!	!	!
8r	.	(16dd\LL	.	4.gg#\	.	2ryy	0r	.	0r	.	0r	.	.	0r	.	2ryy	2ryy
.	.	16ee\	.	.	.	.	.	.	.	.	.	.	.	.	.	.	.
8E\L	7_	16dd\)	.	.	.	.	.	.	.	.	.	.	.	.	.	.	.
.	.	16ee\JJ	.	.	.	.	.	.	.	.	.	.	.	.	.	.	.
8G#\	.	(16dd\LL	.	.	.	.	.	.	.	.	.	.	.	.	.	.	.
.	x	16ee\	.	.	.	.	.	.	.	.	.	.	.	.	.	.	.
8E\J	.	16dd\	.	8gg#\	.	.	.	.	.	.	.	.	.	.	.	.	.
.	.	16ee\JJ)	.	.	.	.	.	.	.	.	.	.	.	.	.	.	.
!	!	!LO:LB:g=original	!	!	!	!	!	!	!	!	!	!	!	!	!	!	!
=109	=109	=109	=109	=109	=109	=109	=109	=109	=109	=109	=109	=109	=109	=109	=109	=109	=109
4A\	.	8cc#\	.	(16aa\LL	.	2ryy	.	.	.	.	.	.	.	.	.	2ryy	2ryy
.	.	.	.	16ccc#\	.	.	.	.	.	.	.	.	.	.	.	.	.
.	.	8r	.	16aa\	.	.	.	.	.	.	.	.	.	.	.	.	.
.	.	.	.	16ccc#\JJ)	.	.	.	.	.	.	.	.	.	.	.	.	.
4r	.	4r	.	(16aa\LL	.	.	.	.	.	.	.	.	.	.	.	.	.
.	.	.	.	16ccc#\	.	.	.	.	.	.	.	.	.	.	.	.	.
.	.	.	.	16aa\	.	.	.	.	.	.	.	.	.	.	.	.	.
.	.	.	.	16ccc#\JJ)	.	.	.	.	.	.	.	.	.	.	.	.	.
!LO:LB:g=original	!	!	!	!	!	!	!	!	!	!	!	!	!	!	!	!	!
=110	=110	=110	=110	=110	=110	=110	=110	=110	=110	=110	=110	=110	=110	=110	=110	=110	=110
8r	.	(16dd\LL	.	4.gg#\	.	2ryy	.	.	.	.	.	.	.	.	.	2ryy	2ryy
.	.	16ee\	.	.	.	.	.	.	.	.	.	.	.	.	.	.	.
8E\L	7_	16dd\)	.	.	.	.	.	.	.	.	.	.	.	.	.	.	.
.	.	16ee\JJ	.	.	.	.	.	.	.	.	.	.	.	.	.	.	.
8G#\	.	16dd\LL	.	.	.	.	.	.	.	.	.	.	.	.	.	.	.
.	x	(16ee\	.	.	.	.	.	.	.	.	.	.	.	.	.	.	.
8E\J	.	16dd\)	.	8gg#\	.	.	.	.	.	.	.	.	.	.	.	.	.
.	.	16ee\JJ	.	.	.	.	.	.	.	.	.	.	.	.	.	.	.
!	!	!	!	!LO:LB:g=original	!	!	!	!	!	!	!	!	!	!	!	!	!
=111	=111	=111	=111	=111	=111	=111	=111	=111	=111	=111	=111	=111	=111	=111	=111	=111	=111
8A\	.	8cc#\	.	(16aa\LL	.	2ryy	.	.	.	.	.	.	.	.	.	2ryy	2ryy
.	.	.	.	16ccc#\	.	.	.	.	.	.	.	.	.	.	.	.	.
8r	.	8r	.	16aa\	.	.	.	.	.	.	.	.	.	.	.	.	.
.	.	.	.	16ccc#\JJ)	.	.	.	.	.	.	.	.	.	.	.	.	.
4r	.	4r	.	(16aa\LL	.	.	.	.	.	.	.	.	.	.	.	.	.
.	.	.	.	16ccc#\	.	.	.	.	.	.	.	.	.	.	.	.	.
.	.	.	.	16aa\)	.	.	.	.	.	.	.	.	.	.	.	.	.
.	.	.	.	16ccc#\JJ	.	.	.	.	.	.	.	.	.	.	.	.	.
=112	=112	=112	=112	=112	=112	=112	=112	=112	=112	=112	=112	=112	=112	=112	=112	=112	=112
!	!	!	!	!	!	!	!LO:N:vis=00	!	!LO:N:vis=00	!	!LO:N:vis=00	!	!	!LO:N:vis=00	!	!	!
8D\L	.	(16dd\LL	.	(16ff#\LL	.	2ryy	0r	.	0r	.	0r	.	.	0r	.	2ryy	2ryy
.	.	16ff#\JJ)	.	16ddd\JJ)	.	.	.	.	.	.	.	.	.	.	.	.	.
8F#\	6	16r	.	16r	.	.	.	.	.	.	.	.	.	.	.	.	.
.	.	16dd\	.	16ff#\	.	.	.	.	.	.	.	.	.	.	.	.	.
8A\	4	(16cc#\LL	.	(16ee\LL	.	.	.	.	.	.	.	.	.	.	.	.	.
.	.	16ee\JJ)	.	16ccc#\JJ)	.	.	.	.	.	.	.	.	.	.	.	.	.
8A#X\J	3	16r	.	16r	.	.	.	.	.	.	.	.	.	.	.	.	.
.	.	16cc#\	.	16ee\	.	.	.	.	.	.	.	.	.	.	.	.	.
=113	=113	=113	=113	=113	=113	=113	=113	=113	=113	=113	=113	=113	=113	=113	=113	=113	=113
!LO:TX:a:t=P:problem= mixed beam	!	!	!	!	!	!	!	!	!	!	!	!	!	!	!	!	!
8B\L	9	(16b\LL	.	(16dd\LL	.	2ryy	.	.	.	.	.	.	.	.	.	2ryy	2ryy
.	.	16dd\JJ)	.	16bb\JJ)	.	.	.	.	.	.	.	.	.	.	.	.	.
8G#\	7	16r	.	16r	.	.	.	.	.	.	.	.	.	.	.	.	.
.	.	16b\	.	16dd\	.	.	.	.	.	.	.	.	.	.	.	.	.
8A\	9	(16a\LL	.	(16cc#\LL	.	.	.	.	.	.	.	.	.	.	.	.	.
.	.	16cc#\JJ)	.	16aa\JJ)	.	.	.	.	.	.	.	.	.	.	.	.	.
8AA/J	8	16r	.	16r	.	.	.	.	.	.	.	.	.	.	.	.	.
.	.	16a\	.	16cc#\	.	.	.	.	.	.	.	.	.	.	.	.	.
=114	=114	=114	=114	=114	=114	=114	=114	=114	=114	=114	=114	=114	=114	=114	=114	=114	=114
!LO:TX:a:t=P:problem= mixed beam	!	!LO:TX:a:t=P:problem= mixed beam	!	!	!	!	!	!	!	!	!	!	!	!	!	!	!
8D\L	6 5	16f#/LL	.	16b\LL	.	2ryy	.	.	.	.	.	.	.	.	.	2ryy	2ryy
.	.	16dd\	.	16ff#\	.	.	.	.	.	.	.	.	.	.	.	.	.
8D\	.	16cc#\	.	16ee\	.	.	.	.	.	.	.	.	.	.	.	.	.
.	.	16b\JJ	.	16dd\JJ	.	.	.	.	.	.	.	.	.	.	.	.	.
8E\	4	8a/L	.	8cc#\L	.	.	.	.	.	.	.	.	.	.	.	.	.
8EE/J	3	8g#/J	.	8b\J	.	.	.	.	.	.	.	.	.	.	.	.	.
=115	=115	=115	=115	=115	=115	=115	=115	=115	=115	=115	=115	=115	=115	=115	=115	=115	=115
4AA/	.	4a/	.	4a/	.	2ryy	.	.	.	.	.	.	.	.	.	2ryy	2ryy
4r	.	4r	.	4r	.	.	.	.	.	.	.	.	.	.	.	.	.
==	==	==	==	==	==	==	==	==	==	==	==;	==	==	==;;	==	==	==
*-	*-	*-	*-	*-	*-	*-	*-	*-	*-	*-	*-	*-	*-	*-	*-	*-	*-
!!!system-decoration: [(g1)][(g2)][(g3)][(g4)]
!!!ENC: Anna Matuszewska
!!!END: 2020-12-16
!!!ENC: Berenika Jozajtis
!!!END: 2020-06-22
